; generated by Slic3r Prusa Edition 1.42.0-beta1+linux64 on 2019-06-17 at 22:08:36

; 

; external perimeters extrusion width = 0.45mm
; perimeters extrusion width = 0.45mm
; infill extrusion width = 0.45mm
; solid infill extrusion width = 0.45mm
; top infill extrusion width = 0.40mm
; first layer extrusion width = 0.42mm

M73 P0 R8
M73 Q0 S8
M201 X1000 Y1000 Z1000 E5000 ; sets maximum accelerations, mm/sec^2
M203 X200 Y200 Z12 E120 ; sets maximum feedrates, mm/sec
M204 P1250 R1250 T1250 ; sets acceleration (P, T) and retract acceleration (R), mm/sec^2
M205 X8.00 Y8.00 Z0.40 E1.50 ; sets the jerk limits, mm/sec
M205 S0 T0 ; sets the minimum extruding and travel feed rate, mm/sec
M107
M115 U3.6.0 ; tell printer latest fw version
M83  ; extruder relative mode
M104 S215 ; set extruder temp
M140 S60 ; set bed temp
M190 S60 ; wait for bed temp
M109 S215 ; wait for extruder temp
G28 W ; home all without mesh bed level
G80 ; mesh bed leveling
G1 Y-3.0 F1000.0 ; go outside print area
G92 E0.0
G1 X60.0 E9.0  F1000.0 ; intro line
M73 Q0 S8
M73 P0 R8
G1 X100.0 E12.5  F1000.0 ; intro line
G92 E0.0
M221 S95
M900 K30 ; Filament gcode
G21 ; set units to millimeters
G90 ; use absolute coordinates
M83 ; use relative distances for extrusion
;BEFORE_LAYER_CHANGE
G92 E0.0
;0.2


G1 E-0.80000 F2100.00000
G1 Z0.600 F10800.000
;AFTER_LAYER_CHANGE
;0.2
G1 X102.776 Y98.214
G1 Z0.200
G1 E0.80000 F2100.00000
M204 S1000
G1 F1200
G1 X104.230 Y97.628 E0.04915
G1 X105.735 Y97.434 E0.04756
G1 X138.754 Y97.434 E1.03530
G1 X140.528 Y97.706 E0.05627
G1 X148.982 Y101.130 E0.28597
G1 X149.676 Y101.558 E0.02557
G1 X150.201 Y102.182 E0.02557
G1 X150.455 Y102.756 E0.01968
G1 X150.562 Y103.370 E0.01956
G1 X150.565 Y106.571 E0.10037
G1 X150.456 Y107.241 E0.02128
G1 X149.636 Y109.268 E0.06856
G1 X149.384 Y109.720 E0.01623
G1 X148.516 Y110.812 E0.04372
G1 X147.320 Y111.731 E0.04731
G1 X145.842 Y112.353 E0.05026
G1 X144.309 Y112.565 E0.04853
G1 X111.005 Y112.554 E1.04422
G1 X109.453 Y112.287 E0.04937
G1 X100.903 Y108.819 E0.28931
G1 X100.419 Y108.520 E0.01783
G1 X100.012 Y108.122 E0.01783
G1 X99.706 Y107.648 E0.01771
G1 X99.509 Y107.115 E0.01783
G1 X99.435 Y106.531 E0.01845
G1 X99.459 Y103.145 E0.10617
G1 X99.601 Y102.590 E0.01795
G1 X100.422 Y100.606 E0.06733
G1 X101.266 Y99.429 E0.04542
G1 X101.695 Y99.004 E0.01894
G1 X102.728 Y98.249 E0.04010
G1 X102.949 Y98.550 F10800.000
G1 F1200
G1 X104.340 Y97.990 E0.04703
G1 X105.738 Y97.811 E0.04417
G1 X138.754 Y97.811 E1.03519
G1 X140.402 Y98.062 E0.05228
G1 X148.829 Y101.474 E0.28505
G1 X149.414 Y101.829 E0.02146
G1 X149.861 Y102.348 E0.02146
G1 X150.090 Y102.852 E0.01737
G1 X150.186 Y103.394 E0.01726
G1 X150.188 Y106.551 E0.09900
G1 X150.097 Y107.127 E0.01828
G1 X149.081 Y109.494 E0.08076
G1 X148.258 Y110.537 E0.04166
G1 X147.152 Y111.392 E0.04384
G1 X145.745 Y111.989 E0.04792
G1 X144.299 Y112.188 E0.04576
G1 X111.049 Y112.179 E1.04252
G1 X109.584 Y111.933 E0.04659
G1 X101.081 Y108.486 E0.28768
G1 X100.657 Y108.228 E0.01555
G1 X100.305 Y107.884 E0.01544
G1 X100.037 Y107.467 E0.01555
G1 X99.870 Y107.004 E0.01544
G1 X99.812 Y106.522 E0.01521
G1 X99.833 Y103.190 E0.10447
G1 X99.956 Y102.717 E0.01532
G1 X100.759 Y100.776 E0.06586
G1 X101.561 Y99.664 E0.04300
G1 X101.932 Y99.297 E0.01635
G1 X102.901 Y98.586 E0.03768
G1 F8640
G1 X104.340 Y97.990 E-0.35976
G1 X105.738 Y97.811 E-0.32531
G1 X106.062 Y97.811 E-0.07493
G1 E-0.04000 F2100.00000
G1 Z0.800 F10800.000
G1 X146.919 Y105.913
G1 Z0.200
G1 E0.80000 F2100.00000
G1 F1200
G1 X146.587 Y105.913 E0.01042
G1 X146.587 Y104.087 E0.05725
G1 X147.413 Y104.087 E0.02589
G1 X147.413 Y105.913 E0.05725
G1 X147.235 Y105.913 E0.00557
G1 X147.059 Y107.253 E0.04237
G1 X146.768 Y107.954 E0.02380
G1 X146.306 Y108.556 E0.02380
G1 X145.704 Y109.018 E0.02380
G1 X145.003 Y109.309 E0.02380
G1 X144.250 Y109.408 E0.02380
G1 X143.497 Y109.309 E0.02380
G1 X142.796 Y109.018 E0.02380
G1 X142.194 Y108.556 E0.02380
G1 X141.732 Y107.954 E0.02380
G1 X141.441 Y107.253 E0.02380
G1 X141.337 Y106.462 E0.02502
G1 X141.337 Y103.462 E0.09406
G1 X141.254 Y102.829 E0.02000
G1 X140.995 Y102.204 E0.02122
G1 X140.583 Y101.667 E0.02121
G1 X140.046 Y101.255 E0.02122
G1 X139.421 Y100.996 E0.02122
G1 X138.750 Y100.908 E0.02122
G1 X138.079 Y100.996 E0.02122
G1 X137.454 Y101.255 E0.02122
G1 X136.917 Y101.667 E0.02122
G1 X136.505 Y102.204 E0.02122
G1 X136.246 Y102.829 E0.02122
G1 X136.081 Y104.087 E0.03978
G1 X136.413 Y104.087 E0.01042
G1 X136.413 Y105.913 E0.05725
G1 X136.235 Y105.913 E0.00557
G1 X136.059 Y107.253 E0.04237
G1 X135.768 Y107.954 E0.02380
G1 X135.306 Y108.556 E0.02380
G1 X134.704 Y109.018 E0.02380
G1 X134.003 Y109.309 E0.02380
G1 X133.250 Y109.408 E0.02380
G1 X132.497 Y109.309 E0.02380
G1 X131.796 Y109.018 E0.02380
G1 X131.194 Y108.556 E0.02380
G1 X130.732 Y107.954 E0.02380
G1 X130.441 Y107.253 E0.02380
G1 X130.337 Y106.462 E0.02502
G1 X130.337 Y103.462 E0.09406
G1 X130.254 Y102.829 E0.02000
G1 X129.995 Y102.204 E0.02122
G1 X129.583 Y101.667 E0.02122
G1 X129.046 Y101.255 E0.02122
G1 X128.421 Y100.996 E0.02122
G1 X127.750 Y100.908 E0.02122
G1 X127.079 Y100.996 E0.02122
G1 X126.454 Y101.255 E0.02122
G1 X125.917 Y101.667 E0.02122
G1 X125.505 Y102.204 E0.02122
G1 X125.246 Y102.829 E0.02122
G1 X125.081 Y104.087 E0.03978
G1 X125.413 Y104.087 E0.01042
G1 X125.413 Y105.913 E0.05725
G1 X125.235 Y105.913 E0.00557
G1 X125.059 Y107.253 E0.04237
G1 X124.768 Y107.954 E0.02380
G1 X124.306 Y108.556 E0.02380
G1 X123.704 Y109.018 E0.02380
G1 X123.003 Y109.309 E0.02380
G1 X122.250 Y109.408 E0.02380
G1 X121.497 Y109.309 E0.02380
G1 X120.796 Y109.018 E0.02380
G1 X120.194 Y108.556 E0.02380
G1 X119.732 Y107.954 E0.02380
G1 X119.441 Y107.253 E0.02380
G1 X119.337 Y106.462 E0.02502
G1 X119.337 Y103.462 E0.09406
G1 X119.254 Y102.829 E0.02000
G1 X118.995 Y102.204 E0.02122
G1 X118.583 Y101.667 E0.02122
G1 X118.046 Y101.255 E0.02122
G1 X117.421 Y100.996 E0.02122
G1 X116.750 Y100.908 E0.02122
G1 X116.079 Y100.996 E0.02122
G1 X115.454 Y101.255 E0.02122
G1 X114.917 Y101.667 E0.02122
G1 X114.505 Y102.204 E0.02122
G1 X114.246 Y102.829 E0.02122
G1 X114.081 Y104.087 E0.03978
G1 X114.413 Y104.087 E0.01042
G1 X114.413 Y105.913 E0.05725
G1 X114.235 Y105.913 E0.00557
G1 X114.059 Y107.253 E0.04237
G1 X113.768 Y107.954 E0.02380
G1 X113.306 Y108.556 E0.02380
G1 X112.704 Y109.018 E0.02380
G1 X112.003 Y109.309 E0.02380
G1 X111.250 Y109.408 E0.02380
G1 X110.497 Y109.309 E0.02380
G1 X109.796 Y109.018 E0.02380
G1 X109.194 Y108.556 E0.02380
G1 X108.732 Y107.954 E0.02380
G1 X108.441 Y107.253 E0.02380
G1 X108.337 Y106.462 E0.02502
G1 X108.337 Y103.462 E0.09406
G1 X108.254 Y102.829 E0.02000
G1 X107.995 Y102.204 E0.02122
G1 X107.583 Y101.667 E0.02122
G1 X107.046 Y101.255 E0.02122
G1 X106.421 Y100.996 E0.02122
G1 X105.750 Y100.908 E0.02122
G1 X105.079 Y100.996 E0.02122
G1 X104.454 Y101.255 E0.02122
G1 X103.917 Y101.667 E0.02122
G1 X103.505 Y102.204 E0.02121
G1 X103.246 Y102.829 E0.02122
G1 X103.081 Y104.087 E0.03978
G1 X103.413 Y104.087 E0.01042
G1 X103.413 Y105.913 E0.05725
G1 X102.587 Y105.913 E0.02589
G1 X102.587 Y104.087 E0.05725
G1 X102.765 Y104.087 E0.00557
G1 X102.941 Y102.747 E0.04237
G1 X103.232 Y102.046 E0.02380
G1 X103.694 Y101.444 E0.02380
G1 X104.296 Y100.982 E0.02380
G1 X104.997 Y100.691 E0.02380
G1 X105.750 Y100.592 E0.02380
G1 X106.503 Y100.691 E0.02380
G1 X107.204 Y100.982 E0.02380
G1 X107.806 Y101.444 E0.02380
G1 X108.268 Y102.046 E0.02380
G1 X108.559 Y102.747 E0.02380
G1 X108.663 Y103.538 E0.02502
G1 X108.663 Y106.538 E0.09406
G1 X108.746 Y107.171 E0.02000
G1 X109.005 Y107.796 E0.02122
G1 X109.417 Y108.333 E0.02121
G1 X109.954 Y108.745 E0.02121
G1 X110.579 Y109.004 E0.02122
G1 X111.250 Y109.092 E0.02122
G1 X111.921 Y109.004 E0.02122
G1 X112.546 Y108.745 E0.02122
G1 X113.083 Y108.333 E0.02121
G1 X113.495 Y107.796 E0.02122
G1 X113.754 Y107.171 E0.02122
G1 X113.919 Y105.913 E0.03978
G1 X113.587 Y105.913 E0.01042
G1 X113.587 Y104.087 E0.05725
G1 X113.765 Y104.087 E0.00557
G1 X113.941 Y102.747 E0.04237
G1 X114.232 Y102.046 E0.02380
G1 X114.694 Y101.444 E0.02380
G1 X115.296 Y100.982 E0.02380
G1 X115.997 Y100.691 E0.02380
G1 X116.750 Y100.592 E0.02380
G1 X117.503 Y100.691 E0.02380
G1 X118.204 Y100.982 E0.02380
G1 X118.806 Y101.444 E0.02380
G1 X119.268 Y102.046 E0.02380
G1 X119.559 Y102.747 E0.02380
G1 X119.663 Y103.538 E0.02502
G1 X119.663 Y106.538 E0.09406
G1 X119.746 Y107.171 E0.02000
G1 X120.005 Y107.796 E0.02122
G1 X120.417 Y108.333 E0.02122
G1 X120.954 Y108.745 E0.02121
G1 X121.579 Y109.004 E0.02122
G1 X122.250 Y109.092 E0.02122
G1 X122.921 Y109.004 E0.02122
G1 X123.546 Y108.745 E0.02122
G1 X124.083 Y108.333 E0.02121
G1 X124.495 Y107.796 E0.02122
G1 X124.754 Y107.171 E0.02122
G1 X124.919 Y105.913 E0.03978
G1 X124.587 Y105.913 E0.01042
G1 X124.587 Y104.087 E0.05725
G1 X124.765 Y104.087 E0.00557
G1 X124.941 Y102.747 E0.04237
G1 X125.232 Y102.046 E0.02380
G1 X125.694 Y101.444 E0.02380
G1 X126.296 Y100.982 E0.02380
G1 X126.997 Y100.691 E0.02380
G1 X127.750 Y100.592 E0.02380
G1 X128.503 Y100.691 E0.02380
G1 X129.204 Y100.982 E0.02380
G1 X129.806 Y101.444 E0.02380
G1 X130.268 Y102.046 E0.02380
G1 X130.559 Y102.747 E0.02380
G1 X130.663 Y103.538 E0.02502
G1 X130.663 Y106.538 E0.09406
G1 X130.746 Y107.171 E0.02000
G1 X131.005 Y107.796 E0.02122
G1 X131.417 Y108.333 E0.02122
G1 X131.954 Y108.745 E0.02121
G1 X132.579 Y109.004 E0.02122
G1 X133.250 Y109.092 E0.02122
G1 X133.921 Y109.004 E0.02122
G1 X134.546 Y108.745 E0.02122
G1 X135.083 Y108.333 E0.02121
G1 X135.495 Y107.796 E0.02122
G1 X135.754 Y107.171 E0.02122
G1 X135.919 Y105.913 E0.03978
G1 X135.587 Y105.913 E0.01042
G1 X135.587 Y104.087 E0.05725
G1 X135.765 Y104.087 E0.00557
G1 X135.941 Y102.747 E0.04237
G1 X136.232 Y102.046 E0.02380
G1 X136.694 Y101.444 E0.02380
G1 X137.296 Y100.982 E0.02380
G1 X137.997 Y100.691 E0.02380
G1 X138.750 Y100.592 E0.02380
G1 X139.503 Y100.691 E0.02380
G1 X140.204 Y100.982 E0.02380
G1 X140.806 Y101.444 E0.02380
G1 X141.268 Y102.046 E0.02380
G1 X141.559 Y102.747 E0.02380
G1 X141.663 Y103.538 E0.02502
G1 X141.663 Y106.538 E0.09406
G1 X141.746 Y107.171 E0.02000
G1 X142.005 Y107.796 E0.02122
G1 X142.417 Y108.333 E0.02122
G1 X142.954 Y108.745 E0.02121
G1 X143.579 Y109.004 E0.02122
G1 X144.250 Y109.092 E0.02122
G1 X144.921 Y109.004 E0.02122
G1 X145.546 Y108.745 E0.02122
G1 X146.083 Y108.333 E0.02121
G1 X146.495 Y107.796 E0.02122
G1 X146.754 Y107.171 E0.02122
G1 X146.912 Y105.972 E0.03790
G1 X146.489 Y106.290 F10800.000
G1 F1200
G1 X146.210 Y106.290 E0.00876
G1 X146.210 Y103.710 E0.08089
G1 X147.790 Y103.710 E0.04954
G1 X147.790 Y106.290 E0.08089
G1 X147.566 Y106.290 E0.00703
G1 X147.426 Y107.351 E0.03356
G1 X147.098 Y108.144 E0.02691
G1 X146.575 Y108.825 E0.02691
G1 X145.894 Y109.348 E0.02691
G1 X145.101 Y109.676 E0.02691
G1 X144.250 Y109.788 E0.02692
G1 X143.399 Y109.676 E0.02692
G1 X142.606 Y109.348 E0.02691
G1 X141.925 Y108.825 E0.02691
G1 X141.402 Y108.144 E0.02691
G1 X141.074 Y107.351 E0.02691
G1 X140.960 Y106.486 E0.02735
G1 X140.960 Y103.486 E0.09406
G1 X140.886 Y102.928 E0.01767
G1 X140.665 Y102.394 E0.01811
G1 X140.314 Y101.936 E0.01810
G1 X139.856 Y101.585 E0.01810
G1 X139.322 Y101.364 E0.01811
G1 X138.750 Y101.288 E0.01810
G1 X138.178 Y101.364 E0.01810
G1 X137.644 Y101.585 E0.01811
G1 X137.186 Y101.936 E0.01810
G1 X136.834 Y102.394 E0.01810
G1 X136.614 Y102.928 E0.01810
G1 X136.511 Y103.710 E0.02474
G1 X136.790 Y103.710 E0.00876
G1 X136.790 Y106.290 E0.08089
G1 X136.566 Y106.290 E0.00703
G1 X136.426 Y107.351 E0.03356
G1 X136.098 Y108.144 E0.02691
G1 X135.575 Y108.825 E0.02691
G1 X134.894 Y109.348 E0.02691
G1 X134.101 Y109.676 E0.02691
G1 X133.250 Y109.788 E0.02691
G1 X132.399 Y109.676 E0.02691
G1 X131.606 Y109.348 E0.02691
G1 X130.925 Y108.825 E0.02691
G1 X130.402 Y108.144 E0.02691
G1 X130.074 Y107.351 E0.02691
G1 X129.960 Y106.486 E0.02735
G1 X129.960 Y103.486 E0.09406
G1 X129.886 Y102.928 E0.01767
G1 X129.665 Y102.394 E0.01810
G1 X129.314 Y101.936 E0.01810
G1 X128.856 Y101.585 E0.01810
G1 X128.322 Y101.364 E0.01810
G1 X127.750 Y101.288 E0.01810
G1 X127.178 Y101.364 E0.01810
G1 X126.644 Y101.585 E0.01810
G1 X126.186 Y101.936 E0.01810
G1 X125.835 Y102.394 E0.01810
G1 X125.614 Y102.928 E0.01810
G1 X125.511 Y103.710 E0.02475
G1 X125.790 Y103.710 E0.00876
G1 X125.790 Y106.290 E0.08089
G1 X125.566 Y106.290 E0.00703
G1 X125.426 Y107.351 E0.03356
G1 X125.098 Y108.144 E0.02691
G1 X124.575 Y108.825 E0.02691
G1 X123.894 Y109.348 E0.02691
G1 X123.101 Y109.676 E0.02691
G1 X122.250 Y109.788 E0.02691
G1 X121.399 Y109.676 E0.02691
G1 X120.606 Y109.348 E0.02691
G1 X119.925 Y108.825 E0.02691
G1 X119.402 Y108.144 E0.02691
G1 X119.074 Y107.351 E0.02691
G1 X118.960 Y106.486 E0.02735
G1 X118.960 Y103.486 E0.09406
G1 X118.886 Y102.928 E0.01767
G1 X118.665 Y102.394 E0.01810
G1 X118.314 Y101.936 E0.01810
G1 X117.856 Y101.585 E0.01810
G1 X117.322 Y101.364 E0.01810
G1 X116.750 Y101.288 E0.01810
G1 X116.178 Y101.364 E0.01810
G1 X115.644 Y101.585 E0.01810
G1 X115.186 Y101.936 E0.01810
G1 X114.835 Y102.394 E0.01810
G1 X114.614 Y102.928 E0.01810
G1 X114.511 Y103.710 E0.02474
G1 X114.790 Y103.710 E0.00876
G1 X114.790 Y106.290 E0.08089
G1 X114.566 Y106.290 E0.00703
G1 X114.426 Y107.351 E0.03356
G1 X114.098 Y108.144 E0.02691
G1 X113.575 Y108.825 E0.02691
G1 X112.894 Y109.348 E0.02691
G1 X112.101 Y109.676 E0.02691
G1 X111.250 Y109.788 E0.02692
G1 X110.399 Y109.676 E0.02692
G1 X109.606 Y109.348 E0.02691
G1 X108.925 Y108.825 E0.02691
G1 X108.402 Y108.144 E0.02691
G1 X108.074 Y107.351 E0.02691
G1 X107.960 Y106.486 E0.02735
G1 X107.960 Y103.486 E0.09406
G1 X107.886 Y102.928 E0.01767
G1 X107.666 Y102.394 E0.01810
G1 X107.314 Y101.936 E0.01810
G1 X106.856 Y101.585 E0.01810
G1 X106.322 Y101.364 E0.01811
G1 X105.750 Y101.288 E0.01810
G1 X105.178 Y101.364 E0.01810
G1 X104.644 Y101.585 E0.01811
G1 X104.186 Y101.936 E0.01810
G1 X103.835 Y102.394 E0.01810
G1 X103.614 Y102.928 E0.01811
G1 X103.511 Y103.710 E0.02475
G1 X103.790 Y103.710 E0.00876
G1 X103.790 Y106.290 E0.08089
G1 X102.210 Y106.290 E0.04954
G1 X102.210 Y103.710 E0.08089
G1 X102.434 Y103.710 E0.00703
G1 X102.574 Y102.649 E0.03356
G1 X102.902 Y101.856 E0.02691
G1 X103.425 Y101.175 E0.02691
G1 X104.106 Y100.652 E0.02691
G1 X104.899 Y100.324 E0.02691
G1 X105.750 Y100.212 E0.02692
G1 X106.601 Y100.324 E0.02692
G1 X107.394 Y100.652 E0.02691
G1 X108.075 Y101.175 E0.02691
G1 X108.598 Y101.856 E0.02691
G1 X108.926 Y102.649 E0.02691
G1 X109.040 Y103.514 E0.02735
G1 X109.040 Y106.514 E0.09406
G1 X109.114 Y107.072 E0.01767
G1 X109.335 Y107.606 E0.01811
G1 X109.686 Y108.064 E0.01810
G1 X110.144 Y108.415 E0.01810
G1 X110.678 Y108.636 E0.01811
G1 X111.250 Y108.712 E0.01810
G1 X111.822 Y108.636 E0.01810
G1 X112.356 Y108.415 E0.01811
G1 X112.814 Y108.064 E0.01810
G1 X113.166 Y107.606 E0.01811
G1 X113.386 Y107.072 E0.01811
G1 X113.489 Y106.290 E0.02474
G1 X113.210 Y106.290 E0.00876
G1 X113.210 Y103.710 E0.08089
G1 X113.434 Y103.710 E0.00703
G1 X113.574 Y102.649 E0.03356
G1 X113.902 Y101.856 E0.02691
G1 X114.425 Y101.175 E0.02691
G1 X115.106 Y100.652 E0.02691
G1 X115.899 Y100.324 E0.02691
G1 X116.750 Y100.212 E0.02691
G1 X117.601 Y100.324 E0.02691
G1 X118.394 Y100.652 E0.02691
G1 X119.075 Y101.175 E0.02691
G1 X119.598 Y101.856 E0.02691
G1 X119.926 Y102.649 E0.02691
G1 X120.040 Y103.514 E0.02735
G1 X120.040 Y106.514 E0.09406
G1 X120.114 Y107.072 E0.01767
G1 X120.335 Y107.606 E0.01811
G1 X120.686 Y108.064 E0.01810
G1 X121.144 Y108.415 E0.01810
G1 X121.678 Y108.636 E0.01811
G1 X122.250 Y108.712 E0.01810
G1 X122.822 Y108.636 E0.01810
G1 X123.356 Y108.415 E0.01811
G1 X123.814 Y108.064 E0.01810
G1 X124.165 Y107.606 E0.01810
G1 X124.386 Y107.072 E0.01811
G1 X124.489 Y106.290 E0.02474
G1 X124.210 Y106.290 E0.00876
G1 X124.210 Y103.710 E0.08089
G1 X124.434 Y103.710 E0.00703
G1 X124.574 Y102.649 E0.03356
G1 X124.902 Y101.856 E0.02691
G1 X125.425 Y101.175 E0.02691
G1 X126.106 Y100.652 E0.02691
G1 X126.899 Y100.324 E0.02691
G1 X127.750 Y100.212 E0.02691
G1 X128.601 Y100.324 E0.02691
G1 X129.394 Y100.652 E0.02691
G1 X130.075 Y101.175 E0.02691
G1 X130.598 Y101.856 E0.02691
G1 X130.926 Y102.649 E0.02691
G1 X131.040 Y103.514 E0.02735
