; generated by Slic3r Prusa Edition 1.42.0-beta1+linux64 on 2019-06-25 at 17:24:27

; 

; external perimeters extrusion width = 0.45mm
; perimeters extrusion width = 0.45mm
; infill extrusion width = 0.45mm
; solid infill extrusion width = 0.45mm
; top infill extrusion width = 0.40mm
; first layer extrusion width = 0.42mm

M73 P0 R6
M73 Q0 S6
M201 X1000 Y1000 Z1000 E5000 ; sets maximum accelerations, mm/sec^2
M203 X200 Y200 Z12 E120 ; sets maximum feedrates, mm/sec
M204 P1250 R1250 T1250 ; sets acceleration (P, T) and retract acceleration (R), mm/sec^2
M205 X8.00 Y8.00 Z0.40 E1.50 ; sets the jerk limits, mm/sec
M205 S0 T0 ; sets the minimum extruding and travel feed rate, mm/sec
M107
M115 U3.6.0 ; tell printer latest fw version
M83  ; extruder relative mode
M104 S215 ; set extruder temp
M140 S60 ; set bed temp
M190 S60 ; wait for bed temp
M109 S215 ; wait for extruder temp
G28 W ; home all without mesh bed level
G80 ; mesh bed leveling
G1 Y-3.0 F1000.0 ; go outside print area
G92 E0.0
G1 X60.0 E9.0  F1000.0 ; intro line
M73 Q1 S6
M73 P1 R6
G1 X100.0 E12.5  F1000.0 ; intro line
G92 E0.0
M221 S95
M900 K30 ; Filament gcode
G21 ; set units to millimeters
G90 ; use absolute coordinates
M83 ; use relative distances for extrusion
;BEFORE_LAYER_CHANGE
G92 E0.0
;0.2


G1 E-0.80000 F2100.00000
G1 Z0.600 F10800.000
;AFTER_LAYER_CHANGE
;0.2
G1 X118.703 Y97.847
G1 Z0.200
G1 E0.80000 F2100.00000
M204 S1000
G1 F1200
G1 X119.641 Y97.026 E0.03907
G1 X120.731 Y96.423 E0.03907
G1 X121.632 Y96.127 E0.02974
G1 X122.576 Y95.980 E0.02993
G1 X127.006 Y95.964 E0.13892
G1 X127.875 Y96.030 E0.02732
G1 X128.724 Y96.224 E0.02732
G1 X129.535 Y96.543 E0.02732
G1 X130.290 Y96.978 E0.02732
G1 X130.971 Y97.521 E0.02732
G1 X131.565 Y98.159 E0.02732
G1 X132.056 Y98.878 E0.02732
G1 X132.436 Y99.662 E0.02732
G1 X132.735 Y100.681 E0.03329
G1 X132.844 Y101.743 E0.03347
G1 X132.841 Y108.394 E0.20854
G1 X132.755 Y109.213 E0.02582
G1 X132.554 Y110.012 E0.02582
G1 X131.980 Y111.250 E0.04279
G1 X131.131 Y112.325 E0.04297
G1 X130.060 Y113.171 E0.04279
G1 X128.821 Y113.744 E0.04279
G1 X127.923 Y113.962 E0.02900
G1 X127.000 Y114.036 E0.02902
G1 X122.707 Y114.028 E0.13459
G1 X121.931 Y113.937 E0.02451
G1 X121.179 Y113.745 E0.02433
G1 X119.875 Y113.130 E0.04520
G1 X118.761 Y112.215 E0.04520
G1 X117.905 Y111.055 E0.04520
G1 X117.359 Y109.721 E0.04520
G1 X117.157 Y108.341 E0.04372
G1 X117.156 Y101.755 E0.20648
G1 X117.233 Y100.858 E0.02825
G1 X117.446 Y99.988 E0.02806
G1 X117.961 Y98.847 E0.03925
G1 X118.668 Y97.895 E0.03718
G1 X118.971 Y98.125 F10800.000
G1 F1200
G1 X119.024 Y98.056 E0.00272
G1 X119.914 Y97.296 E0.03670
G1 X120.950 Y96.740 E0.03688
G1 X121.781 Y96.479 E0.02732
G1 X122.638 Y96.354 E0.02714
G1 X127.006 Y96.342 E0.13695
G1 X127.829 Y96.405 E0.02588
G1 X128.633 Y96.591 E0.02588
G1 X129.399 Y96.896 E0.02588
G1 X130.107 Y97.310 E0.02570
G1 X130.749 Y97.829 E0.02588
G1 X131.305 Y98.438 E0.02588
G1 X131.763 Y99.125 E0.02588
G1 X132.111 Y99.867 E0.02570
G1 X132.374 Y100.800 E0.03039
G1 X132.468 Y101.770 E0.03057
G1 X132.464 Y108.381 E0.20729
G1 X132.379 Y109.173 E0.02497
G1 X132.179 Y109.944 E0.02497
G1 X131.630 Y111.100 E0.04012
G1 X130.823 Y112.100 E0.04030
G1 X129.804 Y112.885 E0.04030
G1 X128.637 Y113.408 E0.04012
G1 X127.241 Y113.653 E0.04443
G1 X122.971 Y113.658 E0.13388
G1 X122.097 Y113.583 E0.02750
G1 X121.246 Y113.370 E0.02750
G1 X120.028 Y112.780 E0.04246
G1 X118.991 Y111.909 E0.04246
G1 X118.200 Y110.810 E0.04246
G1 X117.705 Y109.555 E0.04228
G1 X117.534 Y108.311 E0.03940
G1 X117.533 Y101.740 E0.20602
G1 X117.610 Y100.889 E0.02678
G1 X117.821 Y100.056 E0.02696
G1 X118.316 Y98.989 E0.03688
G1 X118.935 Y98.173 E0.03210
G1 X119.341 Y98.270 F10800.000
G1 F1200
G1 X120.183 Y97.569 E0.03436
G1 X121.161 Y97.062 E0.03454
G1 X121.918 Y96.835 E0.02479
G1 X122.702 Y96.727 E0.02479
G1 X127.006 Y96.719 E0.13494
G1 X127.777 Y96.778 E0.02427
G1 X128.536 Y96.956 E0.02444
G1 X129.254 Y97.245 E0.02427
G1 X129.920 Y97.640 E0.02427
G1 X130.523 Y98.134 E0.02444
G1 X131.039 Y98.711 E0.02427
G1 X131.462 Y99.359 E0.02427
G1 X131.782 Y100.064 E0.02427
G1 X132.012 Y100.919 E0.02775
G1 X132.091 Y101.795 E0.02758
G1 X132.087 Y108.369 E0.20613
G1 X132.003 Y109.133 E0.02410
G1 X131.806 Y109.870 E0.02392
G1 X131.278 Y110.949 E0.03766
G1 X130.513 Y111.875 E0.03766
G1 X129.557 Y112.593 E0.03749
G1 X128.454 Y113.069 E0.03766
G1 X127.198 Y113.278 E0.03992
G1 X122.950 Y113.281 E0.13320
G1 X122.124 Y113.205 E0.02601
G1 X121.321 Y112.996 E0.02601
G1 X120.186 Y112.433 E0.03974
G1 X119.229 Y111.610 E0.03957
G1 X118.501 Y110.572 E0.03974
G1 X118.053 Y109.392 E0.03957
G1 X117.910 Y108.289 E0.03488
G1 X117.910 Y101.731 E0.20560
G1 X117.987 Y100.922 E0.02549
G1 X118.194 Y100.130 E0.02566
G1 X118.665 Y99.140 E0.03436
G1 X119.304 Y98.318 E0.03266
G1 F8640
G1 X120.183 Y97.569 E-0.26661
G1 X121.161 Y97.062 E-0.25434
G1 X121.918 Y96.835 E-0.18258
G1 X122.161 Y96.802 E-0.05647
G1 E-0.04000 F2100.00000
G1 Z0.800 F10800.000
G1 X118.779 Y99.983
G1 Z0.200
G1 E0.80000 F2100.00000
G1 F1200
G1 X119.403 Y99.084 E0.03430
G1 X120.281 Y98.267 E0.03762
G1 X121.093 Y97.807 E0.02926
G1 X122.021 Y97.508 E0.03057
G1 X127.820 Y97.482 E0.18183
G1 X128.604 Y97.683 E0.02538
G1 X129.364 Y98.030 E0.02619
G1 X130.558 Y99.038 E0.04899
G1 X131.231 Y100.001 E0.03684
G1 X131.638 Y101.146 E0.03810
G1 X131.714 Y108.381 E0.22687
G1 X131.222 Y110.016 E0.05355
G1 X130.568 Y110.948 E0.03567
G1 X129.672 Y111.767 E0.03807
G1 X128.785 Y112.243 E0.03156
G1 X127.763 Y112.527 E0.03326
G1 X122.460 Y112.561 E0.16628
G1 X120.830 Y112.068 E0.05338
G1 X119.897 Y111.414 E0.03573
G1 X119.050 Y110.477 E0.03961
G1 X118.587 Y109.586 E0.03147
G1 X118.312 Y108.553 E0.03354
G1 X118.286 Y101.611 E0.21766
G1 X118.761 Y100.040 E0.05145
G1 X119.121 Y100.151 F10800.000
G1 F1200
G1 X119.699 Y99.319 E0.03175
G1 X120.520 Y98.559 E0.03508
G1 X121.260 Y98.145 E0.02657
G1 X122.107 Y97.876 E0.02789
G1 X127.749 Y97.853 E0.17691
G1 X128.493 Y98.044 E0.02408
G1 X129.182 Y98.361 E0.02378
G1 X130.294 Y99.308 E0.04580
G1 X130.906 Y100.194 E0.03375
G1 X131.272 Y101.240 E0.03477
G1 X131.337 Y108.355 E0.22308
G1 X130.870 Y109.876 E0.04990
G1 X130.299 Y110.683 E0.03099
G1 X129.436 Y111.473 E0.03668
G1 X128.628 Y111.899 E0.02865
G1 X127.688 Y112.156 E0.03056
G1 X122.487 Y112.183 E0.16307
G1 X120.970 Y111.717 E0.04975
G1 X120.163 Y111.145 E0.03101
G1 X119.346 Y110.242 E0.03821
G1 X118.946 Y109.470 E0.02726
G1 X118.683 Y108.479 E0.03214
G1 X118.664 Y101.639 E0.21448
G1 X119.104 Y100.208 E0.04693
G1 X119.480 Y100.266 F10800.000
G1 F1200
G1 X119.969 Y99.583 E0.02632
G1 X120.759 Y98.852 E0.03376
G1 X121.424 Y98.485 E0.02382
G1 X122.193 Y98.244 E0.02525
G1 X127.680 Y98.224 E0.17206
G1 X128.352 Y98.394 E0.02172
G1 X129.000 Y98.692 E0.02238
G1 X130.028 Y99.577 E0.04254
G1 X130.580 Y100.384 E0.03065
G1 X130.905 Y101.333 E0.03145
G1 X130.960 Y108.328 E0.21932
G1 X130.520 Y109.734 E0.04620
G1 X130.031 Y110.418 E0.02636
G1 X129.200 Y111.178 E0.03531
G1 X128.509 Y111.541 E0.02446
G1 X127.612 Y111.786 E0.02914
G1 X122.515 Y111.806 E0.15982
G1 X121.113 Y111.367 E0.04609
G1 X120.430 Y110.878 E0.02634
G1 X119.642 Y110.007 E0.03681
G1 X119.305 Y109.354 E0.02306
G1 X119.053 Y108.406 E0.03074
G1 X119.041 Y101.668 E0.21128
G1 X119.462 Y100.323 E0.04419
G1 X119.821 Y100.438 F10800.000
G1 F1200
G1 X120.238 Y99.848 E0.02265
G1 X120.997 Y99.145 E0.03243
G1 X121.586 Y98.826 E0.02101
G1 X122.277 Y98.613 E0.02265
G1 X127.611 Y98.595 E0.16725
G1 X128.242 Y98.755 E0.02041
G1 X128.816 Y99.022 E0.01987
G1 X129.762 Y99.845 E0.03929
G1 X130.253 Y100.573 E0.02754
G1 X130.538 Y101.424 E0.02814
G1 X130.582 Y108.300 E0.21559
G1 X130.170 Y109.590 E0.04246
G1 X129.762 Y110.152 E0.02178
G1 X128.963 Y110.883 E0.03395
G1 X128.390 Y111.182 E0.02028
G1 X127.537 Y111.416 E0.02773
G1 X122.544 Y111.429 E0.15654
G1 X121.257 Y111.017 E0.04238
G1 X120.695 Y110.609 E0.02178
G1 X119.964 Y109.810 E0.03395
G1 X119.664 Y109.236 E0.02032
G1 X119.424 Y108.333 E0.02930
G1 X119.418 Y101.697 E0.20805
G1 X119.803 Y100.495 E0.03959
G1 X120.178 Y100.558 F10800.000
G1 F1200
G1 X120.506 Y100.113 E0.01733
G1 X121.235 Y99.438 E0.03114
G1 X121.715 Y99.181 E0.01705
G1 X122.361 Y98.982 E0.02121
G1 X127.543 Y98.967 E0.16248
G1 X128.100 Y99.105 E0.01798
G1 X128.632 Y99.353 E0.01842
G1 X129.493 Y100.111 E0.03596
G1 X129.924 Y100.759 E0.02442
G1 X130.171 Y101.513 E0.02486
G1 X130.205 Y108.270 E0.21189
G1 X129.822 Y109.442 E0.03866
G1 X129.494 Y109.887 E0.01733
G1 X128.764 Y110.562 E0.03116
G1 X128.270 Y110.824 E0.01754
G1 X127.462 Y111.045 E0.02627
G1 X122.575 Y111.052 E0.15323
G1 X121.405 Y110.669 E0.03861
G1 X120.960 Y110.341 E0.01733
G1 X120.285 Y109.611 E0.03116
G1 X120.023 Y109.118 E0.01752
G1 X119.795 Y108.260 E0.02783
G1 X119.795 Y101.728 E0.20480
G1 X120.159 Y100.615 E0.03673
G1 X120.525 Y100.708 F10800.000
G1 F1200
G1 X120.775 Y100.378 E0.01301
G1 X121.438 Y99.757 E0.02845
G1 X121.844 Y99.536 E0.01452
G1 X122.445 Y99.350 E0.01972
G1 X127.475 Y99.339 E0.15770
G1 X127.990 Y99.466 E0.01665
G1 X128.446 Y99.681 E0.01579
G1 X129.222 Y100.374 E0.03264
G1 X129.594 Y100.943 E0.02128
G1 X129.803 Y101.599 E0.02159
G1 X129.828 Y108.240 E0.20823
G1 X129.475 Y109.292 E0.03478
G1 X129.225 Y109.622 E0.01301
G1 X128.562 Y110.243 E0.02845
G1 X128.149 Y110.467 E0.01474
G1 X127.387 Y110.675 E0.02477
G1 X122.606 Y110.675 E0.14989
G1 X121.555 Y110.322 E0.03476
G1 X121.225 Y110.072 E0.01301
G1 X120.604 Y109.409 E0.02845
G1 X120.380 Y108.996 E0.01474
G1 X120.172 Y108.234 E0.02477
G1 X120.172 Y101.759 E0.20301
G1 X120.506 Y100.765 E0.03288
G1 X120.845 Y100.910 F10800.000
G1 F1200
G1 X121.047 Y100.639 E0.01059
G1 X121.643 Y100.075 E0.02573
G1 X121.975 Y99.890 E0.01192
G1 X122.530 Y99.719 E0.01820
G1 X127.409 Y99.711 E0.15300
G1 X127.847 Y99.816 E0.01413
G1 X128.259 Y100.010 E0.01427
G1 X128.950 Y100.636 E0.02923
G1 X129.261 Y101.123 E0.01813
G1 X129.434 Y101.682 E0.01836
G1 X129.451 Y108.210 E0.20467
G1 X129.155 Y109.090 E0.02912
G1 X128.953 Y109.361 E0.01059
G1 X128.357 Y109.925 E0.02573
G1 X128.024 Y110.110 E0.01196
G1 X127.360 Y110.298 E0.02162
G1 X122.637 Y110.298 E0.14809
G1 X121.757 Y110.002 E0.02912
G1 X121.486 Y109.800 E0.01059
G1 X120.922 Y109.204 E0.02573
G1 X120.737 Y108.871 E0.01196
G1 X120.549 Y108.207 E0.02162
G1 X120.549 Y101.790 E0.20120
G1 X120.826 Y100.967 E0.02724
G1 X121.166 Y101.109 F10800.000
G1 F1200
G1 X121.321 Y100.899 E0.00819
G1 X121.851 Y100.390 E0.02305
G1 X122.107 Y100.244 E0.00923
G1 X122.614 Y100.087 E0.01663
G1 X127.346 Y100.083 E0.14838
G1 X127.705 Y100.166 E0.01156
G1 X128.071 Y100.338 E0.01268
G1 X128.676 Y100.896 E0.02580
G1 X128.909 Y101.259 E0.01351
G1 X129.066 Y101.767 E0.01666
G1 X129.074 Y108.179 E0.20107
G1 X128.834 Y108.891 E0.02354
G1 X128.679 Y109.101 E0.00819
G1 X128.149 Y109.610 E0.02305
G1 X127.894 Y109.756 E0.00919
G1 X127.332 Y109.921 E0.01838
G1 X122.668 Y109.921 E0.14624
G1 X121.956 Y109.681 E0.02355
G1 X121.746 Y109.526 E0.00819
G1 X121.237 Y108.996 E0.02305
G1 X121.091 Y108.741 E0.00919
G1 X120.926 Y108.179 E0.01838
G1 X120.926 Y101.821 E0.19936
G1 X121.147 Y101.166 E0.02166
G1 X121.488 Y101.307 F10800.000
G1 F1200
G1 X121.597 Y101.157 E0.00580
G1 X122.064 Y100.702 E0.02044
G1 X122.241 Y100.597 E0.00643
G1 X122.698 Y100.456 E0.01500
G1 X127.324 Y100.460 E0.14506
G1 X127.562 Y100.515 E0.00767
G1 X127.882 Y100.666 E0.01110
G1 X128.401 Y101.154 E0.02233
G1 X128.556 Y101.395 E0.00898
G1 X128.697 Y101.851 E0.01495
G1 X128.697 Y108.148 E0.19745
G1 X128.512 Y108.693 E0.01806
G1 X128.403 Y108.843 E0.00580
G1 X127.936 Y109.298 E0.02044
G1 X127.759 Y109.403 E0.00643
G1 X127.302 Y109.544 E0.01500
G1 X122.699 Y109.544 E0.14434
G1 X122.154 Y109.359 E0.01806
G1 X122.004 Y109.250 E0.00580
G1 X121.549 Y108.783 E0.02044
G1 X121.444 Y108.606 E0.00643
G1 X121.303 Y108.149 E0.01500
G1 X121.303 Y101.852 E0.19745
G1 X121.469 Y101.363 E0.01618
G1 X121.812 Y101.501 F10800.000
G1 F1200
G1 X121.875 Y101.412 E0.00343
G1 X122.282 Y101.009 E0.01795
G1 X122.383 Y100.947 E0.00371
G1 X122.729 Y100.833 E0.01143
G1 X127.302 Y100.837 E0.14337
G1 X127.419 Y100.864 E0.00377
G1 X127.692 Y100.993 E0.00947
G1 X128.123 Y101.410 E0.01880
G1 X128.207 Y101.538 E0.00479
G1 X128.320 Y101.882 E0.01136
G1 X128.320 Y108.116 E0.19546
G1 X128.188 Y108.499 E0.01270
G1 X128.125 Y108.588 E0.00343
G1 X127.718 Y108.991 E0.01795
G1 X127.617 Y109.053 E0.00371
G1 X127.271 Y109.167 E0.01144
G1 X122.731 Y109.167 E0.14235
G1 X122.348 Y109.035 E0.01270
G1 X122.259 Y108.972 E0.00343
G1 X121.856 Y108.565 E0.01795
G1 X121.794 Y108.464 E0.00371
G1 X121.680 Y108.118 E0.01144
G1 X121.680 Y101.884 E0.19546
G1 X121.793 Y101.558 E0.01081
G1 X122.139 Y101.690 F10800.000
G1 F1200
G1 X122.510 Y101.310 E0.01666
G1 X122.764 Y101.210 E0.00856
G1 X127.250 Y101.210 E0.14064
G1 X127.500 Y101.320 E0.00856
G1 X127.843 Y101.663 E0.01522
G1 X127.943 Y101.917 E0.00856
G1 X127.943 Y108.083 E0.19330
G1 X127.843 Y108.337 E0.00856
G1 X127.490 Y108.690 E0.01566
G1 X127.236 Y108.790 E0.00856
G1 X122.764 Y108.790 E0.14019
G1 X122.510 Y108.690 E0.00856
G1 X122.157 Y108.337 E0.01566
G1 X122.057 Y108.083 E0.00856
G1 X122.057 Y101.917 E0.19330
G1 X122.119 Y101.747 E0.00569
G1 X122.463 Y101.890 F10800.000
G1 F1200
G1 X122.737 Y101.616 E0.01215
G1 X122.806 Y101.587 E0.00235
G1 X127.194 Y101.587 E0.13756
G1 X127.263 Y101.616 E0.00235
G1 X127.537 Y101.890 E0.01215
G1 X127.566 Y101.959 E0.00235
G1 X127.566 Y108.041 E0.19068
G1 X127.537 Y108.110 E0.00235
G1 X127.263 Y108.384 E0.01215
G1 X127.194 Y108.413 E0.00235
G1 X122.806 Y108.413 E0.13756
G1 X122.737 Y108.384 E0.00235
G1 X122.463 Y108.110 E0.01215
G1 X122.434 Y108.041 E0.00235
G1 X122.440 Y101.945 E0.19111
G1 X122.811 Y102.075 F10800.000
G1 F1200
G1 X122.922 Y101.964 E0.00490
G1 X127.078 Y101.964 E0.13031
G1 X127.189 Y102.075 E0.00490
G1 X127.189 Y107.925 E0.18343
G1 X127.078 Y108.036 E0.00490
G1 X122.922 Y108.036 E0.13031
G1 X122.811 Y107.925 E0.00490
G1 X122.811 Y102.135 E0.18155
G1 X123.210 Y102.363 F10800.000
G1 F1200
G1 X124.240 Y102.363 E0.03230
G1 X124.240 Y107.637 E0.16536
G1 X123.210 Y107.637 E0.03230
G1 X123.210 Y102.423 E0.16348
G1 X123.569 Y102.540 F10800.000
G1 X123.587 Y102.740
G1 F1200
G1 X123.863 Y102.740 E0.00865
G1 X123.863 Y107.260 E0.14172
G1 X123.587 Y107.260 E0.00865
G1 X123.587 Y102.800 E0.13984
G1 F8640
G1 X123.863 Y102.740 E-0.06518
G1 X123.863 Y105.749 E-0.69482
G1 E-0.04000 F2100.00000
G1 Z0.800 F10800.000
G1 X125.760 Y102.363
G1 Z0.200
G1 E0.80000 F2100.00000
G1 F1200
G1 X126.790 Y102.363 E0.03230
G1 X126.790 Y107.637 E0.16536
G1 X125.760 Y107.637 E0.03230
G1 X125.760 Y102.423 E0.16348
G1 X126.119 Y102.540 F10800.000
G1 X126.137 Y102.740
G1 F1200
G1 X126.413 Y102.740 E0.00865
G1 X126.413 Y107.260 E0.14172
G1 X126.137 Y107.260 E0.00865
G1 X126.137 Y102.800 E0.13984
M106 S255
;BEFORE_LAYER_CHANGE
G92 E0.0
;0.4


G1 F8640
G1 X126.413 Y102.740 E-0.06518
G1 X126.413 Y105.749 E-0.69482
G1 E-0.04000 F2100.00000
G1 Z0.800 F10800.000
;AFTER_LAYER_CHANGE
;0.4
G1 X131.980 Y111.250
G1 Z0.400
G1 E0.80000 F2100.00000
G1 F900
G1 X131.131 Y112.325 E0.04297
G1 X130.060 Y113.171 E0.04279
G1 X128.821 Y113.744 E0.04279
G1 X127.923 Y113.962 E0.02900
G1 X127.000 Y114.036 E0.02902
G1 X122.707 Y114.028 E0.13459
G1 X121.931 Y113.937 E0.02451
G1 X121.179 Y113.745 E0.02433
G1 X119.875 Y113.130 E0.04520
G1 X118.761 Y112.215 E0.04520
G1 X117.905 Y111.055 E0.04520
G1 X117.359 Y109.721 E0.04520
G1 X117.157 Y108.341 E0.04372
G1 X117.156 Y101.755 E0.20648
G1 X117.233 Y100.858 E0.02825
G1 X117.446 Y99.988 E0.02806
G1 X117.961 Y98.847 E0.03925
G1 X118.703 Y97.847 E0.03907
G1 X119.641 Y97.026 E0.03907
G1 X120.731 Y96.423 E0.03907
G1 X121.632 Y96.127 E0.02974
G1 X122.576 Y95.980 E0.02993
G1 X127.006 Y95.964 E0.13892
G1 X127.875 Y96.030 E0.02732
G1 X128.724 Y96.224 E0.02732
G1 X129.535 Y96.543 E0.02732
G1 X130.290 Y96.978 E0.02732
G1 X130.971 Y97.521 E0.02732
G1 X131.565 Y98.159 E0.02732
G1 X132.056 Y98.878 E0.02732
G1 X132.436 Y99.662 E0.02732
G1 X132.735 Y100.681 E0.03329
G1 X132.844 Y101.743 E0.03347
G1 X132.841 Y108.394 E0.20854
G1 X132.755 Y109.213 E0.02582
G1 X132.554 Y110.012 E0.02582
G1 X132.006 Y111.195 E0.04091
G1 F8640
