; generated by Slic3r Prusa Edition 1.42.0-beta1+linux64 on 2019-06-12 at 18:30:16

; 

; external perimeters extrusion width = 0.45mm
; perimeters extrusion width = 0.45mm
; infill extrusion width = 0.45mm
; solid infill extrusion width = 0.45mm
; top infill extrusion width = 0.40mm
; first layer extrusion width = 0.42mm

M73 P0 R106
M73 Q0 S106
M201 X1000 Y1000 Z1000 E5000 ; sets maximum accelerations, mm/sec^2
M203 X200 Y200 Z12 E120 ; sets maximum feedrates, mm/sec
M204 P1250 R1250 T1250 ; sets acceleration (P, T) and retract acceleration (R), mm/sec^2
M205 X8.00 Y8.00 Z0.40 E1.50 ; sets the jerk limits, mm/sec
M205 S0 T0 ; sets the minimum extruding and travel feed rate, mm/sec
M107
M115 U3.6.0 ; tell printer latest fw version
M83  ; extruder relative mode
M104 S215 ; set extruder temp
M140 S60 ; set bed temp
M190 S60 ; wait for bed temp
M109 S215 ; wait for extruder temp
G28 W ; home all without mesh bed level
G80 ; mesh bed leveling
G1 Y-3.0 F1000.0 ; go outside print area
G92 E0.0
G1 X60.0 E9.0  F1000.0 ; intro line
M73 Q0 S106
M73 P0 R106
G1 X100.0 E12.5  F1000.0 ; intro line
G92 E0.0
M221 S95
M900 K30 ; Filament gcode
G21 ; set units to millimeters
G90 ; use absolute coordinates
M83 ; use relative distances for extrusion
;BEFORE_LAYER_CHANGE
G92 E0.0
;0.2


G1 E-0.80000 F2100.00000
G1 Z0.600 F10800.000
;AFTER_LAYER_CHANGE
;0.2
G1 X73.344 Y85.680
G1 Z0.200
G1 E0.80000 F2100.00000
M204 S1000
G1 F1200
G1 X76.115 Y83.667 E0.10740
G1 X78.776 Y82.208 E0.09517
G1 X81.645 Y81.069 E0.09678
G1 X84.843 Y80.247 E0.10352
G1 X87.851 Y79.867 E0.09506
G1 X89.464 Y79.812 E0.05062
G1 X160.504 Y79.811 E2.22739
G1 X162.148 Y79.866 E0.05158
G1 X165.156 Y80.246 E0.09508
G1 X168.351 Y81.067 E0.10341
G1 X171.223 Y82.208 E0.09689
G1 X173.885 Y83.666 E0.09517
G1 X176.607 Y85.635 E0.10534
G1 X178.860 Y87.756 E0.09701
G1 X180.796 Y90.089 E0.09506
G1 X182.574 Y92.867 E0.10340
G1 X183.965 Y95.853 E0.10329
G1 X184.898 Y98.737 E0.09506
G1 X185.480 Y101.772 E0.09689
G1 X185.685 Y105.129 E0.10546
G1 X185.490 Y108.155 E0.09506
G1 X184.926 Y111.134 E0.09506
G1 X183.919 Y114.274 E0.10340
G1 X182.507 Y117.246 E0.10317
G1 X180.877 Y119.807 E0.09517
G1 X178.950 Y122.142 E0.09494
G1 X176.555 Y124.409 E0.10340
G1 X173.882 Y126.335 E0.10329
G1 X171.224 Y127.792 E0.09506
G1 X168.355 Y128.931 E0.09678
G1 X165.157 Y129.753 E0.10352
G1 X162.149 Y130.133 E0.09506
G1 X160.521 Y130.188 E0.05108
G1 X89.489 Y130.189 E2.22717
G1 X87.852 Y130.134 E0.05135
G1 X84.880 Y129.759 E0.09393
G1 X81.722 Y128.958 E0.10215
G1 X78.781 Y127.794 E0.09918
G1 X76.005 Y126.269 E0.09929
G1 X73.446 Y124.410 E0.09918
G1 X71.137 Y122.242 E0.09929
G1 X69.121 Y119.804 E0.09918
G1 X67.426 Y117.133 E0.09918
G1 X66.059 Y114.217 E0.10101
G1 X65.103 Y111.266 E0.09724
G1 X64.531 Y108.289 E0.09506
G1 X64.311 Y104.991 E0.10363
G1 X64.510 Y101.845 E0.09884
G1 X65.074 Y98.863 E0.09517
G1 X66.135 Y95.601 E0.10754
G1 X67.430 Y92.861 E0.09503
G1 X69.123 Y90.193 E0.09907
G1 X71.137 Y87.759 E0.09907
G1 X73.300 Y85.721 E0.09317
G1 F8640
G1 X75.958 Y83.781 E-0.76000
G1 E-0.04000 F2100.00000
G1 Z0.800 F10800.000
G1 X154.937 Y120.884
G1 Z0.200
G1 E0.80000 F2100.00000
G1 F1200
G1 X155.412 Y120.275 E0.02421
G1 X156.058 Y119.852 E0.02420
G1 X156.780 Y119.669 E0.02337
G1 X157.572 Y119.725 E0.02489
G1 X158.283 Y120.037 E0.02433
G1 X158.851 Y120.560 E0.02420
G1 X159.218 Y121.239 E0.02421
G1 X159.345 Y122.000 E0.02420
G1 X159.218 Y122.761 E0.02420
G1 X158.851 Y123.440 E0.02421
G1 X158.283 Y123.963 E0.02420
G1 X157.576 Y124.273 E0.02421
G1 X156.806 Y124.337 E0.02420
G1 X156.058 Y124.148 E0.02421
G1 X155.412 Y123.725 E0.02420
G1 X154.937 Y123.116 E0.02421
G1 X154.687 Y122.386 E0.02421
G1 X154.687 Y121.614 E0.02420
G1 X154.918 Y120.941 E0.02233
G1 X155.274 Y121.066 F10800.000
G1 F1200
G1 X155.671 Y120.556 E0.02026
G1 X156.211 Y120.202 E0.02026
G1 X156.814 Y120.050 E0.01950
G1 X157.481 Y120.097 E0.02094
G1 X158.074 Y120.357 E0.02031
G1 X158.549 Y120.794 E0.02026
G1 X158.857 Y121.363 E0.02026
G1 X158.963 Y122.000 E0.02026
G1 X158.857 Y122.637 E0.02026
G1 X158.549 Y123.206 E0.02026
G1 X158.074 Y123.643 E0.02026
G1 X157.482 Y123.903 E0.02026
G1 X156.838 Y123.956 E0.02026
G1 X156.211 Y123.798 E0.02026
G1 X155.671 Y123.444 E0.02026
G1 X155.274 Y122.934 E0.02026
G1 X155.064 Y122.323 E0.02026
G1 X155.064 Y121.677 E0.02026
G1 X155.254 Y121.123 E0.01838
G1 X155.064 Y120.725 F10800.000
G1 F8640
G1 X155.671 Y120.556 E-0.16238
G1 X156.211 Y120.202 E-0.14919
G1 X156.814 Y120.050 E-0.14358
G1 X157.481 Y120.097 E-0.15424
G1 X158.074 Y120.357 E-0.14953
G1 X158.077 Y120.360 E-0.00108
G1 E-0.04000 F2100.00000
G1 Z0.800 F10800.000
G1 X156.806 Y90.337
G1 Z0.200
G1 E0.80000 F2100.00000
G1 F1200
G1 X156.058 Y90.148 E0.02421
G1 X155.412 Y89.725 E0.02420
G1 X154.937 Y89.116 E0.02421
G1 X154.687 Y88.386 E0.02421
G1 X154.687 Y87.614 E0.02420
G1 X154.937 Y86.884 E0.02421
G1 X155.412 Y86.275 E0.02421
G1 X156.058 Y85.852 E0.02420
G1 X156.780 Y85.669 E0.02337
G1 X157.572 Y85.725 E0.02489
G1 X158.283 Y86.037 E0.02432
G1 X158.851 Y86.560 E0.02420
G1 X159.218 Y87.239 E0.02421
G1 X159.345 Y88.000 E0.02420
G1 X159.218 Y88.761 E0.02420
G1 X158.851 Y89.440 E0.02421
G1 X158.283 Y89.963 E0.02420
G1 X157.576 Y90.273 E0.02421
G1 X156.866 Y90.332 E0.02232
G1 X156.838 Y89.956 F10800.000
G1 F1200
G1 X156.211 Y89.798 E0.02026
G1 X155.671 Y89.444 E0.02026
G1 X155.274 Y88.934 E0.02026
G1 X155.064 Y88.323 E0.02026
G1 X155.064 Y87.677 E0.02026
G1 X155.274 Y87.066 E0.02026
G1 X155.671 Y86.556 E0.02026
G1 X156.211 Y86.202 E0.02026
G1 X156.814 Y86.050 E0.01950
G1 X157.481 Y86.097 E0.02094
G1 X158.074 Y86.357 E0.02030
G1 X158.549 Y86.794 E0.02026
G1 X158.857 Y87.363 E0.02026
G1 X158.963 Y88.000 E0.02026
G1 X158.857 Y88.637 E0.02026
G1 X158.549 Y89.206 E0.02026
G1 X158.074 Y89.643 E0.02026
G1 X157.482 Y89.903 E0.02026
G1 X156.898 Y89.951 E0.01838
G1 X156.610 Y90.285 F10800.000
G1 F8640
G1 X156.211 Y89.798 E-0.16238
G1 X155.671 Y89.444 E-0.14919
G1 X155.274 Y88.934 E-0.14921
G1 X155.064 Y88.323 E-0.14921
G1 X155.064 Y87.677 E-0.14918
G1 X155.065 Y87.674 E-0.00084
G1 E-0.04000 F2100.00000
G1 Z0.800 F10800.000
G1 X152.970 Y93.099
G1 Z0.200
G1 E0.80000 F2100.00000
G1 F1200
G1 X152.767 Y93.121 E0.00641
G1 X152.864 Y93.168 E0.00339
G1 X153.396 Y93.835 E0.02676
G1 X153.586 Y94.667 E0.02676
G1 X153.504 Y95.028 E0.01159
G1 X154.298 Y94.770 E0.02617
G1 X155.413 Y96.527 E0.06525
G1 X156.353 Y98.525 E0.06925
G1 X157.358 Y101.618 E0.10194
G1 X157.220 Y101.590 E0.00442
G1 X157.449 Y102.796 E0.03848
G1 X157.588 Y105.000 E0.06925
G1 X157.385 Y108.226 E0.10135
G1 X157.269 Y108.149 E0.00437
G1 X157.036 Y109.374 E0.03911
G1 X156.386 Y111.373 E0.06590
G1 X156.052 Y111.307 E0.01068
G1 X156.283 Y111.624 E0.01231
G1 X155.413 Y113.473 E0.06407
G1 X154.961 Y114.186 E0.02645
G1 X154.150 Y114.271 E0.02555
G1 X154.011 Y114.226 E0.00458
G1 X154.176 Y114.949 E0.02325
G1 X154.033 Y115.575 E0.02014
G1 X153.201 Y116.581 E0.04094
G1 X152.671 Y116.836 E0.01845
G1 X151.809 Y116.836 E0.02702
G1 X151.674 Y116.771 E0.00471
G1 X151.782 Y117.243 E0.01520
G1 X151.596 Y118.059 E0.02622
G1 X151.190 Y118.567 E0.02040
G1 X150.826 Y118.832 E0.01411
G1 X150.321 Y119.075 E0.01756
G1 X149.485 Y119.075 E0.02621
G1 X149.164 Y118.921 E0.01115
G1 X149.223 Y119.160 E0.00772
G1 X148.995 Y120.086 E0.02991
G1 X147.429 Y120.947 E0.05603
G1 X146.753 Y120.865 E0.02135
G1 X146.542 Y120.720 E0.00803
G1 X146.387 Y121.350 E0.02037
G1 X145.435 Y121.727 E0.03211
G1 X143.897 Y122.122 E0.04979
G1 X143.917 Y122.198 E0.00246
G1 X141.718 Y122.476 E0.06949
G1 X141.808 Y122.554 E0.00372
G1 X141.104 Y122.554 E0.02206
G1 X140.606 Y122.617 E0.01576
G1 X140.589 Y122.554 E0.00204
G1 X140.587 Y122.587 E0.00105
G1 X137.536 Y122.587 E0.09566
G1 X138.239 Y121.493 E0.04077
G1 X137.820 Y121.798 E0.01625
G1 X136.878 Y121.798 E0.02952
G1 X136.166 Y121.281 E0.02759
G1 X136.096 Y121.473 E0.00641
G1 X135.224 Y121.977 E0.03160
G1 X134.231 Y121.802 E0.03160
G1 X133.788 Y121.274 E0.02160
G1 X132.943 Y121.776 E0.03083
G1 X131.989 Y121.608 E0.03037
G1 X131.441 Y120.955 E0.02674
G1 X130.676 Y121.271 E0.02595
G1 X131.155 Y122.587 E0.04390
G1 X128.202 Y122.587 E0.09258
G1 X128.202 Y122.416 E0.00536
G1 X127.790 Y122.587 E0.01400
G1 X127.234 Y122.587 E0.01741
G1 X126.526 Y122.294 E0.02404
G1 X126.150 Y121.385 E0.03082
G1 X125.702 Y121.571 E0.01519
G1 X125.305 Y121.406 E0.01347
G1 X125.735 Y122.587 E0.03940
G1 X122.798 Y122.587 E0.09208
G1 X122.798 Y121.845 E0.02326
G1 X122.510 Y121.965 E0.00979
G1 X121.860 Y121.696 E0.02205
G1 X122.184 Y122.587 E0.02975
G1 X119.198 Y122.587 E0.09362
G1 X119.198 Y121.673 E0.02865
G1 X118.373 Y121.332 E0.02799
G1 X118.057 Y122.200 E0.02897
G1 X117.387 Y122.587 E0.02427
G1 X116.556 Y122.587 E0.02604
G1 X116.210 Y122.526 E0.01104
G1 X115.901 Y122.158 E0.01507
G1 X115.761 Y122.587 E0.01415
G1 X109.686 Y122.587 E0.19048
G1 X109.707 Y122.554 E0.00125
G1 X108.896 Y122.554 E0.02545
G1 X106.704 Y122.277 E0.06925
G1 X104.070 Y121.600 E0.08529
G1 X104.100 Y121.543 E0.00202
G1 X102.511 Y120.914 E0.05356
G1 X100.576 Y119.850 E0.06926
G1 X98.318 Y118.210 E0.08752
G1 X98.925 Y117.917 E0.02113
G1 X98.556 Y117.740 E0.01285
G1 X98.230 Y118.027 E0.01363
G1 X97.179 Y117.040 E0.04520
G1 X96.764 Y116.539 E0.02039
G1 X97.028 Y116.227 E0.01283
G1 X96.801 Y116.250 E0.00716
G1 X96.424 Y116.128 E0.01242
G1 X95.771 Y115.338 E0.03215
G1 X95.091 Y114.267 E0.03977
G1 X95.091 Y113.925 E0.01071
G1 X94.870 Y114.073 E0.00835
G1 X93.647 Y111.475 E0.09005
G1 X93.214 Y110.144 E0.04387
G1 X93.931 Y110.002 E0.02290
G1 X93.834 Y109.915 E0.00408
G1 X93.153 Y109.955 E0.02139
G1 X92.964 Y109.374 E0.01914
G1 X92.716 Y108.070 E0.04162
G1 X93.332 Y107.817 E0.02089
G1 X93.423 Y107.614 E0.00697
G1 X92.587 Y107.781 E0.02672
G1 X92.412 Y105.000 E0.08735
G1 X92.495 Y103.671 E0.04174
G1 X92.981 Y103.575 E0.01552
G1 X92.894 Y103.496 E0.00368
G1 X92.560 Y102.747 E0.02573
G1 X92.862 Y101.165 E0.05049
G1 X93.268 Y100.799 E0.01713
G1 X92.979 Y100.581 E0.01134
G1 X93.647 Y98.525 E0.06776
G1 X94.587 Y96.527 E0.06925
G1 X96.201 Y93.984 E0.09442
G1 X96.259 Y94.071 E0.00329
G1 X97.179 Y92.960 E0.04523
G1 X98.789 Y91.448 E0.06926
G1 X100.576 Y90.150 E0.06925
G1 X102.511 Y89.086 E0.06926
G1 X103.548 Y88.675 E0.03496
G1 X103.399 Y88.572 E0.00570
G1 X104.566 Y88.272 E0.03778
G1 X104.676 Y88.229 E0.00372
G1 X104.672 Y88.245 E0.00052
G1 X106.457 Y87.787 E0.05777
G1 X106.783 Y88.320 E0.01959
G1 X106.928 Y88.175 E0.00644
G1 X107.763 Y87.951 E0.02711
G1 X108.598 Y88.175 E0.02711
G1 X108.788 Y88.364 E0.00840
G1 X109.364 Y87.446 E0.03397
G1 X109.413 Y87.446 E0.00154
G1 X109.413 Y87.413 E0.00105
G1 X111.109 Y87.413 E0.05318
G1 X111.508 Y87.759 E0.01656
G1 X111.621 Y87.413 E0.01140
G1 X116.595 Y87.413 E0.15598
G1 X116.645 Y87.564 E0.00498
G1 X116.771 Y87.413 E0.00619
G1 X118.784 Y87.413 E0.06309
G1 X118.986 Y87.970 E0.01859
G1 X119.185 Y87.733 E0.00971
G1 X120.128 Y87.566 E0.03002
G1 X120.958 Y88.045 E0.03002
G1 X121.179 Y88.652 E0.02024
G1 X121.876 Y88.363 E0.02367
G1 X122.075 Y88.445 E0.00675
G1 X121.208 Y87.413 E0.04226
G1 X124.720 Y87.413 E0.11011
G1 X124.637 Y87.640 E0.00758
G1 X125.044 Y87.472 E0.01379
G1 X126.019 Y87.875 E0.03308
G1 X126.422 Y88.850 E0.03308
G1 X126.370 Y88.975 E0.00424
G1 X126.628 Y88.868 E0.00875
G1 X127.124 Y89.074 E0.01684
G1 X127.124 Y88.180 E0.02802
G1 X127.768 Y87.413 E0.03141
G1 X128.897 Y87.413 E0.03538
G1 X129.500 Y87.761 E0.02185
G1 X129.554 Y87.908 E0.00489
G1 X129.597 Y87.413 E0.01558
G1 X131.331 Y87.413 E0.05436
G1 X131.465 Y87.913 E0.01622
G1 X132.145 Y87.793 E0.02165
G1 X132.844 Y88.196 E0.02532
G1 X133.098 Y87.413 E0.02583
G1 X140.587 Y87.413 E0.23480
G1 X140.587 Y87.446 E0.00105
G1 X140.688 Y87.446 E0.00318
G1 X140.674 Y87.392 E0.00176
G1 X141.104 Y87.446 E0.01360
G1 X141.402 Y87.446 E0.00932
G1 X141.391 Y87.483 E0.00118
G1 X143.296 Y87.723 E0.06020
G1 X145.435 Y88.273 E0.06925
G1 X146.873 Y88.842 E0.04850
G1 X146.893 Y88.758 E0.00270
G1 X149.424 Y90.150 E0.09059
G1 X151.211 Y91.448 E0.06925
G1 X152.926 Y93.058 E0.07376
G1 F8640
G1 X152.767 Y93.121 E-0.03956
G1 X152.864 Y93.168 E-0.02497
G1 X153.396 Y93.835 E-0.19708
G1 X153.586 Y94.667 E-0.19706
G1 X153.504 Y95.028 E-0.08537
G1 X154.298 Y94.770 E-0.19274
G1 X154.351 Y94.855 E-0.02321
G1 E-0.04000 F2100.00000
G1 Z0.800 F10800.000
G1 X112.771 Y121.585
G1 Z0.200
G1 E0.80000 F2100.00000
G1 F1200
G1 X112.954 Y122.210 E0.02041
G1 X110.377 Y122.210 E0.08083
G1 X110.947 Y121.323 E0.03306
G1 X111.572 Y121.038 E0.02154
G1 X112.252 Y121.135 E0.02154
G1 X112.726 Y121.546 E0.01966
G1 X113.171 Y121.566 F10800.000
G1 F8640
G1 X112.954 Y122.210 E-0.16216
G1 X110.377 Y122.210 E-0.59523
G1 X110.383 Y122.201 E-0.00260
G1 E-0.04000 F2100.00000
G1 Z0.800 F10800.000
G1 X110.196 Y122.176
G1 Z0.200
G1 E0.80000 F2100.00000
G1 F1200
G1 X108.919 Y122.176 E0.04003
G1 X107.642 Y122.015 E0.04035
G1 X107.771 Y121.535 E0.01560
G1 X108.247 Y121.058 E0.02111
G1 X108.898 Y120.884 E0.02111
G1 X109.548 Y121.058 E0.02111
G1 X110.024 Y121.534 E0.02111
G1 X110.181 Y122.119 E0.01896
G1 X110.266 Y122.570 F10800.000
G1 F8640
G1 X108.919 Y122.176 E-0.29153
G1 X107.642 Y122.015 E-0.29718
G1 X107.771 Y121.535 E-0.11490
G1 X107.944 Y121.362 E-0.05639
G1 E-0.04000 F2100.00000
G1 Z0.800 F10800.000
G1 X108.622 Y120.687
G1 Z0.200
G1 E0.80000 F2100.00000
G1 F1200
G1 X107.928 Y120.787 E0.02199
G1 X107.290 Y120.496 E0.02199
G1 X106.911 Y119.906 E0.02199
G1 X106.911 Y119.204 E0.02199
G1 X107.290 Y118.614 E0.02199
G1 X107.928 Y118.323 E0.02199
G1 X108.622 Y118.423 E0.02199
G1 X109.152 Y118.882 E0.02199
G1 X109.350 Y119.555 E0.02199
G1 X109.152 Y120.228 E0.02199
G1 X108.667 Y120.648 E0.02011
G1 X108.584 Y121.085 F10800.000
G1 F8640
G1 X107.928 Y120.787 E-0.17375
G1 X107.290 Y120.496 E-0.16194
G1 X106.911 Y119.906 E-0.16193
G1 X106.911 Y119.204 E-0.16194
G1 X107.146 Y118.838 E-0.10045
G1 E-0.04000 F2100.00000
G1 Z0.800 F10800.000
G1 X106.444 Y119.539
G1 Z0.200
G1 E0.80000 F2100.00000
G1 F1200
G1 X105.959 Y120.025 E0.02152
G1 X105.296 Y120.202 E0.02152
G1 X104.633 Y120.025 E0.02152
G1 X104.147 Y119.539 E0.02152
G1 X103.970 Y118.876 E0.02152
G1 X104.147 Y118.213 E0.02152
G1 X104.633 Y117.728 E0.02152
G1 X105.296 Y117.550 E0.02152
G1 X105.959 Y117.728 E0.02152
G1 X106.444 Y118.213 E0.02152
G1 X106.622 Y118.876 E0.02152
G1 X106.460 Y119.481 E0.01964
G1 X106.644 Y119.886 F10800.000
G1 F8640
G1 X105.959 Y120.025 E-0.17064
G1 X105.296 Y120.202 E-0.15849
G1 X104.633 Y120.025 E-0.15849
G1 X104.147 Y119.539 E-0.15850
G1 X104.020 Y119.063 E-0.11389
G1 E-0.04000 F2100.00000
G1 Z0.800 F10800.000
G1 X105.656 Y117.189
G1 Z0.200
G1 E0.80000 F2100.00000
G1 F1200
G1 X105.022 Y117.359 E0.02059
G1 X104.388 Y117.189 E0.02059
G1 X103.923 Y116.725 E0.02059
G1 X103.753 Y116.091 E0.02059
G1 X103.923 Y115.456 E0.02059
G1 X104.388 Y114.992 E0.02059
G1 X105.022 Y114.822 E0.02059
G1 X105.656 Y114.992 E0.02059
G1 X106.121 Y115.456 E0.02059
G1 X106.291 Y116.091 E0.02059
G1 X106.121 Y116.725 E0.02059
G1 X105.699 Y117.147 E0.01871
G1 X105.656 Y117.589 F10800.000
G1 F8640
G1 X105.022 Y117.359 E-0.16378
G1 X104.388 Y117.189 E-0.15161
G1 X103.923 Y116.725 E-0.15162
G1 X103.753 Y116.091 E-0.15161
G1 X103.912 Y115.499 E-0.14138
G1 E-0.04000 F2100.00000
G1 Z0.800 F10800.000
G1 X103.880 Y117.779
G1 Z0.200
G1 E0.80000 F2100.00000
G1 F1200
G1 X103.719 Y118.433 E0.02113
G1 X103.272 Y118.938 E0.02113
G1 X102.642 Y119.177 E0.02112
G1 X101.973 Y119.095 E0.02113
G1 X101.419 Y118.713 E0.02113
G1 X101.105 Y118.116 E0.02113
G1 X101.105 Y117.442 E0.02112
G1 X101.419 Y116.846 E0.02112
G1 X101.973 Y116.463 E0.02113
G1 X102.642 Y116.382 E0.02113
G1 X103.272 Y116.621 E0.02112
G1 X103.719 Y117.125 E0.02113
G1 X103.865 Y117.721 E0.01924
G1 X104.226 Y117.979 F10800.000
G1 F8640
G1 X103.719 Y118.433 E-0.16797
G1 X103.272 Y118.938 E-0.15558
G1 X102.642 Y119.177 E-0.15555
G1 X101.973 Y119.095 E-0.15558
G1 X101.526 Y118.787 E-0.12533
G1 E-0.04000 F2100.00000
G1 Z0.800 F10800.000
G1 X103.061 Y115.978
G1 Z0.200
G1 E0.80000 F2100.00000
G1 F1200
G1 X102.385 Y116.159 E0.02193
G1 X101.710 Y115.978 E0.02193
G1 X101.215 Y115.484 E0.02193
G1 X101.034 Y114.808 E0.02193
G1 X101.215 Y114.132 E0.02193
