; generated by Slic3r Prusa Edition 1.42.0-beta1+linux64 on 2019-06-18 at 18:02:13

; 

; external perimeters extrusion width = 0.45mm
; perimeters extrusion width = 0.45mm
; infill extrusion width = 0.45mm
; solid infill extrusion width = 0.45mm
; top infill extrusion width = 0.40mm
; first layer extrusion width = 0.42mm

M73 P0 R74
M73 Q0 S76
M201 X1000 Y1000 Z1000 E5000 ; sets maximum accelerations, mm/sec^2
M203 X200 Y200 Z12 E120 ; sets maximum feedrates, mm/sec
M204 P1250 R1250 T1250 ; sets acceleration (P, T) and retract acceleration (R), mm/sec^2
M205 X8.00 Y8.00 Z0.40 E1.50 ; sets the jerk limits, mm/sec
M205 S0 T0 ; sets the minimum extruding and travel feed rate, mm/sec
M107
M115 U3.6.0 ; tell printer latest fw version
M83  ; extruder relative mode
M104 S215 ; set extruder temp
M140 S60 ; set bed temp
M190 S60 ; wait for bed temp
M109 S215 ; wait for extruder temp
G28 W ; home all without mesh bed level
G80 ; mesh bed leveling
G1 Y-3.0 F1000.0 ; go outside print area
G92 E0.0
G1 X60.0 E9.0  F1000.0 ; intro line
M73 Q0 S76
M73 P0 R74
G1 X100.0 E12.5  F1000.0 ; intro line
G92 E0.0
M221 S95
M900 K30 ; Filament gcode
G21 ; set units to millimeters
G90 ; use absolute coordinates
M83 ; use relative distances for extrusion
;BEFORE_LAYER_CHANGE
G92 E0.0
;0.2


G1 E-0.80000 F2100.00000
G1 Z0.600 F10800.000
;AFTER_LAYER_CHANGE
;0.2
G1 X75.036 Y87.520
G1 Z0.200
G1 E0.80000 F2100.00000
M204 S1000
G1 F1200
G1 X76.220 Y86.605 E0.04693
G1 X78.570 Y85.118 E0.08721
G1 X81.084 Y83.931 E0.08716
G1 X82.496 Y83.419 E0.04709
G1 X85.316 Y82.702 E0.09123
G1 X88.007 Y82.362 E0.08504
G1 X89.468 Y82.312 E0.04583
G1 X160.504 Y82.311 E2.22728
G1 X163.275 Y82.483 E0.08706
G1 X164.749 Y82.713 E0.04676
G1 X166.206 Y83.042 E0.04686
G1 X168.791 Y83.882 E0.08522
G1 X170.217 Y84.498 E0.04869
G1 X172.599 Y85.808 E0.08522
G1 X173.837 Y86.645 E0.04686
G1 X175.013 Y87.561 E0.04675
G1 X176.994 Y89.422 E0.08522
G1 X177.985 Y90.541 E0.04687
G1 X179.619 Y92.785 E0.08705
G1 X180.382 Y94.070 E0.04686
G1 X181.058 Y95.402 E0.04683
G1 X182.077 Y97.986 E0.08708
G1 X182.491 Y99.422 E0.04687
G1 X183.000 Y102.088 E0.08510
G1 X183.144 Y103.576 E0.04687
G1 X183.187 Y105.069 E0.04682
G1 X183.017 Y107.782 E0.08525
G1 X182.773 Y109.317 E0.04870
G1 X182.097 Y111.949 E0.08521
G1 X181.594 Y113.356 E0.04687
G1 X180.414 Y115.870 E0.08704
G1 X179.658 Y117.155 E0.04675
G1 X178.814 Y118.391 E0.04693
G1 X177.041 Y120.529 E0.08709
G1 X175.982 Y121.584 E0.04687
G1 X173.891 Y123.314 E0.08510
G1 X172.657 Y124.157 E0.04687
G1 X171.372 Y124.913 E0.04675
G1 X168.912 Y126.070 E0.08522
G1 X167.504 Y126.581 E0.04698
G1 X164.684 Y127.298 E0.09123
G1 X161.993 Y127.638 E0.08504
G1 X160.525 Y127.688 E0.04606
G1 X89.493 Y127.689 E2.22717
G1 X86.612 Y127.504 E0.09049
G1 X83.791 Y126.958 E0.09010
G1 X81.212 Y126.120 E0.08503
G1 X79.899 Y125.556 E0.04480
G1 X77.345 Y124.158 E0.09128
G1 X75.034 Y122.479 E0.08956
G1 X72.916 Y120.482 E0.09128
G1 X71.975 Y119.409 E0.04476
G1 X70.381 Y117.214 E0.08503
G1 X68.972 Y114.663 E0.09139
G1 X67.919 Y112.004 E0.08968
G1 X67.227 Y109.319 E0.08694
G1 X66.990 Y107.839 E0.04698
G1 X66.812 Y105.065 E0.08716
G1 X66.861 Y103.509 E0.04882
G1 X67.203 Y100.809 E0.08533
G1 X67.542 Y99.291 E0.04877
G1 X68.405 Y96.647 E0.08721
G1 X69.586 Y94.130 E0.08716
G1 X70.378 Y92.790 E0.04881
G1 X72.016 Y90.540 E0.08727
G1 X73.009 Y89.419 E0.04694
G1 X74.992 Y87.561 E0.08521
G1 F8640
G1 X76.220 Y86.605 E-0.35944
G1 X77.686 Y85.677 E-0.40056
G1 E-0.04000 F2100.00000
G1 Z0.800 F10800.000
G1 X140.993 Y104.356
G1 Z0.200
G1 E0.80000 F2100.00000
G1 F1200
G1 X141.093 Y104.047 E0.01020
G1 X141.232 Y103.753 E0.01019
G1 X141.406 Y103.479 E0.01019
G1 X141.613 Y103.228 E0.01019
G1 X141.850 Y103.006 E0.01019
G1 X142.113 Y102.815 E0.01019
G1 X142.398 Y102.658 E0.01019
G1 X142.700 Y102.538 E0.01019
G1 X143.024 Y102.455 E0.01048
G1 X143.472 Y102.413 E0.01412
G1 X149.528 Y102.413 E0.18986
G1 X149.976 Y102.455 E0.01412
G1 X150.300 Y102.538 E0.01048
G1 X150.602 Y102.658 E0.01019
G1 X150.887 Y102.815 E0.01019
G1 X151.150 Y103.006 E0.01019
G1 X151.366 Y103.209 E0.00930
G1 X151.592 Y103.476 E0.01097
G1 X151.768 Y103.753 E0.01030
G1 X151.907 Y104.047 E0.01019
G1 X152.007 Y104.356 E0.01020
G1 X152.068 Y104.676 E0.01019
G1 X152.088 Y105.000 E0.01019
G1 X152.068 Y105.324 E0.01019
G1 X152.007 Y105.644 E0.01019
G1 X151.907 Y105.953 E0.01020
G1 X151.768 Y106.247 E0.01019
G1 X151.594 Y106.521 E0.01019
G1 X151.387 Y106.772 E0.01019
G1 X151.150 Y106.994 E0.01019
G1 X150.887 Y107.185 E0.01019
G1 X150.602 Y107.342 E0.01019
G1 X150.300 Y107.462 E0.01019
G1 X149.976 Y107.545 E0.01048
G1 X149.528 Y107.587 E0.01412
G1 X143.472 Y107.587 E0.18986
G1 X143.024 Y107.545 E0.01412
G1 X142.700 Y107.462 E0.01048
G1 X142.398 Y107.342 E0.01019
G1 X142.113 Y107.185 E0.01019
G1 X141.850 Y106.994 E0.01019
G1 X141.613 Y106.772 E0.01019
G1 X141.406 Y106.521 E0.01019
G1 X141.232 Y106.247 E0.01019
G1 X141.093 Y105.953 E0.01019
G1 X140.993 Y105.644 E0.01020
G1 X140.932 Y105.324 E0.01019
G1 X140.912 Y105.000 E0.01019
G1 X140.932 Y104.676 E0.01019
G1 X140.982 Y104.415 E0.00831
G1 X141.352 Y104.486 F10800.000
G1 F1200
G1 X141.445 Y104.186 E0.00983
G1 X141.563 Y103.935 E0.00870
G1 X141.712 Y103.701 E0.00870
G1 X141.889 Y103.487 E0.00870
G1 X142.091 Y103.297 E0.00870
G1 X142.316 Y103.134 E0.00870
G1 X142.559 Y103.000 E0.00870
G1 X142.817 Y102.898 E0.00871
G1 X143.089 Y102.828 E0.00880
G1 X143.490 Y102.790 E0.01263
G1 X149.510 Y102.790 E0.18875
G1 X149.911 Y102.828 E0.01263
G1 X150.183 Y102.898 E0.00880
G1 X150.441 Y103.000 E0.00871
G1 X150.684 Y103.134 E0.00870
G1 X150.909 Y103.297 E0.00870
G1 X151.092 Y103.469 E0.00788
G1 X151.288 Y103.700 E0.00949
G1 X151.437 Y103.935 E0.00874
G1 X151.555 Y104.186 E0.00870
G1 X151.641 Y104.450 E0.00870
G1 X151.693 Y104.723 E0.00870
G1 X151.710 Y105.000 E0.00870
G1 X151.693 Y105.277 E0.00870
G1 X151.641 Y105.550 E0.00870
G1 X151.555 Y105.814 E0.00870
G1 X151.437 Y106.065 E0.00870
G1 X151.288 Y106.299 E0.00870
G1 X151.111 Y106.513 E0.00870
G1 X150.909 Y106.703 E0.00870
G1 X150.684 Y106.866 E0.00870
G1 X150.441 Y107.000 E0.00870
G1 X150.183 Y107.102 E0.00871
G1 X149.911 Y107.172 E0.00880
G1 X149.510 Y107.210 E0.01263
G1 X143.490 Y107.210 E0.18875
G1 X143.089 Y107.172 E0.01263
G1 X142.817 Y107.102 E0.00880
G1 X142.559 Y107.000 E0.00871
G1 X142.316 Y106.866 E0.00870
G1 X142.091 Y106.703 E0.00870
G1 X141.889 Y106.513 E0.00870
G1 X141.712 Y106.299 E0.00870
G1 X141.563 Y106.065 E0.00870
G1 X141.445 Y105.814 E0.00870
G1 X141.359 Y105.550 E0.00870
G1 X141.307 Y105.277 E0.00870
G1 X141.290 Y105.000 E0.00870
G1 X141.307 Y104.723 E0.00870
G1 X141.341 Y104.545 E0.00569
G1 X141.126 Y104.269 F10800.000
G1 F8640
G1 X141.445 Y104.186 E-0.08620
G1 X141.563 Y103.935 E-0.06410
G1 X141.712 Y103.701 E-0.06409
G1 X141.889 Y103.487 E-0.06409
G1 X142.091 Y103.297 E-0.06409
G1 X142.316 Y103.134 E-0.06407
G1 X142.559 Y103.000 E-0.06411
G1 X142.817 Y102.898 E-0.06411
G1 X143.089 Y102.828 E-0.06484
G1 X143.490 Y102.790 E-0.09303
G1 X143.781 Y102.790 E-0.06725
G1 E-0.04000 F2100.00000
G1 Z0.800 F10800.000
G1 X144.189 Y97.350
G1 Z0.200
G1 E0.80000 F2100.00000
G1 F1200
G1 X143.941 Y97.251 E0.00838
G1 X143.667 Y97.101 E0.00980
G1 X143.414 Y96.917 E0.00980
G1 X143.186 Y96.703 E0.00980
G1 X142.987 Y96.463 E0.00980
G1 X142.820 Y96.199 E0.00980
G1 X142.686 Y95.916 E0.00980
G1 X142.590 Y95.619 E0.00980
G1 X142.531 Y95.312 E0.00980
G1 X142.512 Y95.000 E0.00980
G1 X142.531 Y94.688 E0.00980
G1 X142.590 Y94.381 E0.00980
G1 X142.686 Y94.084 E0.00980
G1 X142.820 Y93.801 E0.00980
G1 X142.987 Y93.537 E0.00980
G1 X143.186 Y93.297 E0.00979
G1 X143.414 Y93.083 E0.00980
G1 X143.667 Y92.899 E0.00980
G1 X143.941 Y92.749 E0.00980
G1 X144.231 Y92.634 E0.00980
G1 X144.543 Y92.554 E0.01008
G1 X144.973 Y92.513 E0.01354
G1 X149.157 Y92.517 E0.13119
G1 X149.466 Y92.556 E0.00979
G1 X149.769 Y92.634 E0.00979
G1 X150.059 Y92.749 E0.00980
G1 X150.333 Y92.899 E0.00980
G1 X150.586 Y93.083 E0.00980
G1 X150.816 Y93.299 E0.00990
G1 X151.028 Y93.560 E0.01054
G1 X151.180 Y93.801 E0.00895
G1 X151.314 Y94.084 E0.00980
G1 X151.410 Y94.381 E0.00980
G1 X151.469 Y94.688 E0.00980
G1 X151.488 Y95.000 E0.00980
G1 X151.469 Y95.312 E0.00980
G1 X151.410 Y95.619 E0.00980
G1 X151.314 Y95.916 E0.00980
G1 X151.180 Y96.199 E0.00980
G1 X151.013 Y96.463 E0.00980
G1 X150.814 Y96.703 E0.00980
G1 X150.586 Y96.917 E0.00980
G1 X150.333 Y97.101 E0.00980
G1 X150.059 Y97.251 E0.00980
G1 X149.769 Y97.366 E0.00980
G1 X149.466 Y97.444 E0.00980
G1 X149.156 Y97.483 E0.00980
G1 X144.844 Y97.483 E0.13521
G1 X144.534 Y97.444 E0.00980
G1 X144.245 Y97.370 E0.00933
G1 X144.348 Y97.007 F10800.000
G1 F1200
G1 X144.101 Y96.910 E0.00831
G1 X143.869 Y96.782 E0.00831
G1 X143.655 Y96.626 E0.00831
G1 X143.462 Y96.445 E0.00831
G1 X143.293 Y96.240 E0.00831
G1 X143.151 Y96.017 E0.00831
G1 X143.038 Y95.777 E0.00831
G1 X142.956 Y95.525 E0.00831
G1 X142.906 Y95.265 E0.00831
G1 X142.890 Y95.000 E0.00831
G1 X142.906 Y94.736 E0.00831
G1 X142.956 Y94.475 E0.00831
G1 X143.038 Y94.223 E0.00831
G1 X143.151 Y93.983 E0.00831
G1 X143.293 Y93.760 E0.00831
G1 X143.462 Y93.555 E0.00831
G1 X143.655 Y93.374 E0.00831
G1 X143.869 Y93.218 E0.00831
G1 X144.101 Y93.090 E0.00831
G1 X144.348 Y92.993 E0.00831
G1 X144.608 Y92.926 E0.00841
G1 X144.990 Y92.890 E0.01204
G1 X149.133 Y92.894 E0.12988
G1 X149.395 Y92.927 E0.00831
G1 X149.652 Y92.993 E0.00831
G1 X149.899 Y93.090 E0.00831
G1 X150.131 Y93.218 E0.00831
G1 X150.345 Y93.374 E0.00831
G1 X150.539 Y93.556 E0.00835
G1 X150.721 Y93.781 E0.00905
G1 X150.849 Y93.983 E0.00753
G1 X150.962 Y94.223 E0.00831
G1 X151.044 Y94.475 E0.00831
G1 X151.094 Y94.736 E0.00831
G1 X151.110 Y95.000 E0.00831
G1 X151.094 Y95.265 E0.00831
G1 X151.044 Y95.525 E0.00831
G1 X150.962 Y95.777 E0.00831
G1 X150.849 Y96.017 E0.00831
G1 X150.707 Y96.240 E0.00831
G1 X150.538 Y96.445 E0.00831
G1 X150.345 Y96.626 E0.00831
G1 X150.131 Y96.782 E0.00831
G1 X149.899 Y96.910 E0.00831
G1 X149.652 Y97.007 E0.00831
G1 X149.395 Y97.073 E0.00831
G1 X149.133 Y97.106 E0.00831
G1 X144.867 Y97.106 E0.13373
G1 X144.605 Y97.073 E0.00831
G1 X144.406 Y97.022 E0.00643
G1 X144.151 Y97.185 F10800.000
G1 F8640
G1 X144.101 Y96.910 E-0.07497
G1 X143.869 Y96.782 E-0.06120
G1 X143.655 Y96.626 E-0.06119
G1 X143.462 Y96.445 E-0.06119
G1 X143.293 Y96.240 E-0.06119
G1 X143.151 Y96.017 E-0.06120
G1 X143.038 Y95.777 E-0.06120
G1 X142.956 Y95.525 E-0.06120
G1 X142.906 Y95.265 E-0.06119
G1 X142.890 Y95.000 E-0.06120
G1 X142.906 Y94.736 E-0.06119
G1 X142.956 Y94.475 E-0.06120
G1 X142.972 Y94.426 E-0.01188
G1 E-0.04000 F2100.00000
G1 Z0.800 F10800.000
G1 X140.379 Y95.714
G1 Z0.200
G1 E0.80000 F2100.00000
G1 F1200
G1 X140.314 Y95.916 E0.00665
G1 X140.180 Y96.199 E0.00980
G1 X140.013 Y96.463 E0.00980
G1 X139.814 Y96.703 E0.00980
G1 X139.586 Y96.917 E0.00980
G1 X139.333 Y97.101 E0.00980
G1 X139.059 Y97.251 E0.00980
G1 X138.769 Y97.366 E0.00980
G1 X138.466 Y97.444 E0.00980
G1 X138.156 Y97.483 E0.00980
G1 X133.844 Y97.483 E0.13521
G1 X133.534 Y97.444 E0.00980
G1 X133.231 Y97.366 E0.00980
G1 X132.941 Y97.251 E0.00980
G1 X132.667 Y97.101 E0.00980
G1 X132.414 Y96.917 E0.00980
G1 X132.186 Y96.703 E0.00980
G1 X131.987 Y96.463 E0.00980
G1 X131.820 Y96.199 E0.00980
G1 X131.686 Y95.916 E0.00980
G1 X131.590 Y95.619 E0.00980
G1 X131.531 Y95.312 E0.00980
G1 X131.512 Y95.000 E0.00980
G1 X131.531 Y94.688 E0.00980
G1 X131.590 Y94.381 E0.00980
G1 X131.687 Y94.084 E0.00980
G1 X131.820 Y93.801 E0.00980
G1 X131.987 Y93.537 E0.00980
G1 X132.186 Y93.297 E0.00980
G1 X132.414 Y93.083 E0.00980
G1 X132.667 Y92.899 E0.00980
G1 X132.941 Y92.749 E0.00980
G1 X133.231 Y92.634 E0.00980
G1 X133.543 Y92.554 E0.01009
G1 X133.973 Y92.513 E0.01354
G1 X138.157 Y92.517 E0.13119
G1 X138.466 Y92.556 E0.00979
G1 X138.769 Y92.634 E0.00979
G1 X139.059 Y92.749 E0.00980
G1 X139.333 Y92.899 E0.00980
G1 X139.586 Y93.083 E0.00980
G1 X139.816 Y93.299 E0.00990
G1 X140.028 Y93.560 E0.01054
G1 X140.180 Y93.801 E0.00895
G1 X140.314 Y94.084 E0.00980
G1 X140.410 Y94.381 E0.00980
G1 X140.469 Y94.688 E0.00980
G1 X140.488 Y95.000 E0.00980
G1 X140.469 Y95.312 E0.00980
G1 X140.398 Y95.657 E0.01105
G1 X140.044 Y95.525 F10800.000
G1 F1200
G1 X139.962 Y95.777 E0.00831
G1 X139.849 Y96.017 E0.00831
G1 X139.707 Y96.240 E0.00831
G1 X139.538 Y96.445 E0.00831
G1 X139.345 Y96.626 E0.00831
G1 X139.131 Y96.782 E0.00831
G1 X138.899 Y96.910 E0.00831
G1 X138.652 Y97.007 E0.00831
G1 X138.395 Y97.073 E0.00831
G1 X138.133 Y97.106 E0.00831
G1 X133.867 Y97.106 E0.13373
G1 X133.605 Y97.073 E0.00831
G1 X133.348 Y97.007 E0.00831
G1 X133.101 Y96.910 E0.00831
G1 X132.869 Y96.782 E0.00831
G1 X132.655 Y96.626 E0.00831
G1 X132.462 Y96.445 E0.00831
G1 X132.293 Y96.240 E0.00831
G1 X132.151 Y96.017 E0.00831
G1 X132.038 Y95.777 E0.00831
G1 X131.956 Y95.525 E0.00831
G1 X131.906 Y95.265 E0.00831
G1 X131.890 Y95.000 E0.00831
G1 X131.906 Y94.736 E0.00831
G1 X131.956 Y94.475 E0.00831
G1 X132.038 Y94.223 E0.00831
G1 X132.151 Y93.983 E0.00831
G1 X132.293 Y93.760 E0.00831
G1 X132.462 Y93.555 E0.00831
G1 X132.655 Y93.374 E0.00831
G1 X132.869 Y93.218 E0.00831
G1 X133.101 Y93.090 E0.00831
G1 X133.348 Y92.993 E0.00831
G1 X133.608 Y92.926 E0.00841
G1 X133.990 Y92.890 E0.01204
G1 X138.133 Y92.894 E0.12988
G1 X138.395 Y92.927 E0.00831
G1 X138.652 Y92.993 E0.00831
G1 X138.899 Y93.090 E0.00831
G1 X139.131 Y93.218 E0.00831
G1 X139.345 Y93.374 E0.00831
G1 X139.539 Y93.556 E0.00835
G1 X139.721 Y93.781 E0.00905
G1 X139.849 Y93.983 E0.00753
G1 X139.962 Y94.223 E0.00831
G1 X140.044 Y94.475 E0.00831
G1 X140.094 Y94.736 E0.00831
G1 X140.110 Y95.000 E0.00831
G1 X140.094 Y95.265 E0.00831
G1 X140.055 Y95.466 E0.00643
G1 X140.233 Y95.710 F10800.000
G1 F8640
G1 X139.962 Y95.777 E-0.07496
G1 X139.849 Y96.017 E-0.06120
G1 X139.707 Y96.240 E-0.06120
G1 X139.538 Y96.445 E-0.06119
G1 X139.345 Y96.626 E-0.06119
G1 X139.131 Y96.782 E-0.06119
G1 X138.899 Y96.910 E-0.06120
G1 X138.652 Y97.007 E-0.06121
G1 X138.395 Y97.073 E-0.06119
G1 X138.133 Y97.106 E-0.06119
G1 X137.551 Y97.106 E-0.13427
G1 E-0.04000 F2100.00000
G1 Z0.800 F10800.000
G1 X129.488 Y95.000
G1 Z0.200
G1 E0.80000 F2100.00000
G1 F1200
G1 X129.469 Y95.312 E0.00980
G1 X129.410 Y95.619 E0.00980
G1 X129.314 Y95.916 E0.00980
G1 X129.180 Y96.199 E0.00980
G1 X129.013 Y96.463 E0.00980
G1 X128.814 Y96.703 E0.00980
G1 X128.586 Y96.917 E0.00980
G1 X128.333 Y97.101 E0.00980
G1 X128.059 Y97.251 E0.00980
G1 X127.769 Y97.366 E0.00980
G1 X127.466 Y97.444 E0.00980
G1 X127.156 Y97.483 E0.00980
G1 X122.844 Y97.483 E0.13521
G1 X122.534 Y97.444 E0.00980
G1 X122.231 Y97.366 E0.00980
G1 X121.941 Y97.251 E0.00980
G1 X121.667 Y97.101 E0.00980
G1 X121.414 Y96.917 E0.00980
G1 X121.186 Y96.703 E0.00980
G1 X120.987 Y96.463 E0.00980
G1 X120.820 Y96.199 E0.00980
G1 X120.686 Y95.916 E0.00980
G1 X120.590 Y95.619 E0.00980
G1 X120.531 Y95.312 E0.00980
G1 X120.512 Y95.000 E0.00980
G1 X120.531 Y94.688 E0.00980
G1 X120.590 Y94.381 E0.00980
G1 X120.687 Y94.084 E0.00980
G1 X120.820 Y93.801 E0.00980
G1 X120.987 Y93.537 E0.00980
G1 X121.186 Y93.297 E0.00980
G1 X121.414 Y93.083 E0.00980
G1 X121.667 Y92.899 E0.00980
G1 X121.941 Y92.749 E0.00980
G1 X122.231 Y92.634 E0.00980
G1 X122.543 Y92.554 E0.01009
G1 X122.973 Y92.513 E0.01354
G1 X127.157 Y92.517 E0.13119
G1 X127.466 Y92.556 E0.00979
G1 X127.769 Y92.634 E0.00979
G1 X128.059 Y92.749 E0.00980
G1 X128.333 Y92.899 E0.00980
G1 X128.586 Y93.083 E0.00980
G1 X128.814 Y93.297 E0.00980
G1 X129.013 Y93.537 E0.00980
G1 X129.180 Y93.801 E0.00980
G1 X129.313 Y94.084 E0.00980
G1 X129.410 Y94.381 E0.00980
G1 X129.469 Y94.688 E0.00980
G1 X129.484 Y94.940 E0.00791
G1 X129.108 Y94.964 F10800.000
G1 F1200
G1 X129.094 Y95.265 E0.00944
G1 X129.044 Y95.525 E0.00831
G1 X128.962 Y95.777 E0.00831
G1 X128.849 Y96.017 E0.00831
G1 X128.707 Y96.240 E0.00831
G1 X128.538 Y96.445 E0.00831
G1 X128.345 Y96.626 E0.00831
G1 X128.131 Y96.782 E0.00831
G1 X127.899 Y96.910 E0.00831
G1 X127.652 Y97.007 E0.00831
G1 X127.395 Y97.073 E0.00831
G1 X127.133 Y97.106 E0.00831
G1 X122.867 Y97.106 E0.13373
G1 X122.605 Y97.073 E0.00831
G1 X122.348 Y97.007 E0.00831
G1 X122.101 Y96.910 E0.00831
G1 X121.869 Y96.782 E0.00831
G1 X121.655 Y96.626 E0.00831
