; generated by Slic3r Prusa Edition 1.42.0-beta1+linux64 on 2019-06-26 at 18:42:33

; 

; external perimeters extrusion width = 0.45mm
; perimeters extrusion width = 0.45mm
; infill extrusion width = 0.45mm
; solid infill extrusion width = 0.45mm
; top infill extrusion width = 0.40mm
; first layer extrusion width = 0.42mm

M73 P0 R47
M73 Q0 S47
M201 X1000 Y1000 Z1000 E5000 ; sets maximum accelerations, mm/sec^2
M203 X200 Y200 Z12 E120 ; sets maximum feedrates, mm/sec
M204 P1250 R1250 T1250 ; sets acceleration (P, T) and retract acceleration (R), mm/sec^2
M205 X8.00 Y8.00 Z0.40 E1.50 ; sets the jerk limits, mm/sec
M205 S0 T0 ; sets the minimum extruding and travel feed rate, mm/sec
M107
M115 U3.6.0 ; tell printer latest fw version
M83  ; extruder relative mode
M104 S215 ; set extruder temp
M140 S60 ; set bed temp
M190 S60 ; wait for bed temp
M109 S215 ; wait for extruder temp
G28 W ; home all without mesh bed level
G80 ; mesh bed leveling
G1 Y-3.0 F1000.0 ; go outside print area
G92 E0.0
G1 X60.0 E9.0  F1000.0 ; intro line
M73 Q0 S47
M73 P0 R47
G1 X100.0 E12.5  F1000.0 ; intro line
G92 E0.0
M221 S95
M900 K30 ; Filament gcode
G21 ; set units to millimeters
G90 ; use absolute coordinates
M83 ; use relative distances for extrusion
;BEFORE_LAYER_CHANGE
G92 E0.0
;0.2


G1 E-0.80000 F2100.00000
G1 Z0.600 F10800.000
;AFTER_LAYER_CHANGE
;0.2
G1 X109.976 Y92.573
G1 Z0.200
G1 E0.80000 F2100.00000
M204 S1000
G1 F1200
G1 X111.595 Y90.843 E0.07429
G1 X112.630 Y89.931 E0.04324
G1 X114.548 Y88.541 E0.07429
G1 X115.678 Y87.877 E0.04110
G1 X117.818 Y86.874 E0.07408
G1 X119.052 Y86.434 E0.04110
G1 X121.345 Y85.849 E0.07420
G1 X123.695 Y85.548 E0.07429
G1 X125.003 Y85.503 E0.04101
G1 X127.363 Y85.648 E0.07417
G1 X128.660 Y85.850 E0.04114
G1 X130.952 Y86.435 E0.07417
G1 X132.245 Y86.900 E0.04311
G1 X134.332 Y87.882 E0.07231
G1 X135.514 Y88.582 E0.04308
G1 X137.427 Y89.976 E0.07420
G1 X139.157 Y91.595 E0.07429
G1 X140.069 Y92.630 E0.04324
G1 X141.459 Y94.548 E0.07429
G1 X142.123 Y95.678 E0.04110
G1 X143.126 Y97.818 E0.07408
G1 X143.566 Y99.052 E0.04110
G1 X144.151 Y101.345 E0.07420
G1 X144.352 Y102.637 E0.04097
G1 X144.497 Y104.999 E0.07420
G1 X144.452 Y106.305 E0.04097
G1 X144.152 Y108.652 E0.07420
G1 X143.566 Y110.948 E0.07429
G1 X143.125 Y112.183 E0.04113
G1 X142.123 Y114.322 E0.07405
G1 X141.458 Y115.452 E0.04113
G1 X140.068 Y117.371 E0.07430
G1 X139.157 Y118.405 E0.04320
G1 X137.429 Y120.022 E0.07420
G1 X135.514 Y121.418 E0.07429
G1 X134.331 Y122.118 E0.04312
G1 X132.248 Y123.099 E0.07218
G1 X130.954 Y123.565 E0.04312
G1 X128.659 Y124.151 E0.07429
G1 X127.363 Y124.352 E0.04109
G1 X125.001 Y124.497 E0.07420
G1 X123.695 Y124.452 E0.04097
G1 X121.348 Y124.152 E0.07420
G1 X119.052 Y123.566 E0.07429
G1 X117.817 Y123.125 E0.04113
G1 X115.678 Y122.123 E0.07405
G1 X114.548 Y121.458 E0.04113
G1 X112.629 Y120.068 E0.07430
G1 X111.595 Y119.157 E0.04320
G1 X109.978 Y117.429 E0.07420
G1 X108.582 Y115.514 E0.07429
G1 X107.882 Y114.331 E0.04312
G1 X106.901 Y112.248 E0.07218
G1 X106.435 Y110.954 E0.04312
G1 X105.849 Y108.659 E0.07429
G1 X105.648 Y107.363 E0.04109
G1 X105.503 Y105.001 E0.07420
G1 X105.648 Y102.637 E0.07429
G1 X105.850 Y101.340 E0.04114
G1 X106.435 Y99.048 E0.07417
G1 X106.900 Y97.755 E0.04311
G1 X107.882 Y95.668 E0.07231
G1 X108.582 Y94.486 E0.04308
G1 X109.941 Y92.622 E0.07232
G1 X110.245 Y92.843 F10800.000
G1 F1200
G1 X111.862 Y91.110 E0.07432
G1 X112.861 Y90.228 E0.04178
G1 X114.752 Y88.858 E0.07322
G1 X115.850 Y88.213 E0.03991
G1 X117.959 Y87.224 E0.07304
G1 X119.157 Y86.796 E0.03991
G1 X121.418 Y86.219 E0.07316
G1 X123.731 Y85.923 E0.07311
G1 X125.004 Y85.880 E0.03995
G1 X127.328 Y86.023 E0.07299
G1 X128.587 Y86.220 E0.03995
G1 X130.846 Y86.797 E0.07311
G1 X132.100 Y87.248 E0.04178
G1 X134.157 Y88.216 E0.07128
G1 X135.303 Y88.894 E0.04174
G1 X137.188 Y90.268 E0.07315
G1 X138.890 Y91.862 E0.07311
G1 X139.772 Y92.861 E0.04178
G1 X141.142 Y94.752 E0.07322
G1 X141.787 Y95.850 E0.03991
G1 X142.776 Y97.959 E0.07304
G1 X143.204 Y99.157 E0.03991
G1 X143.781 Y101.418 E0.07316
G1 X144.077 Y103.731 E0.07311
G1 X144.120 Y105.001 E0.03984
G1 X143.977 Y107.328 E0.07311
G1 X143.780 Y108.587 E0.03995
G1 X143.203 Y110.846 E0.07311
G1 X142.753 Y112.097 E0.04166
G1 X141.784 Y114.157 E0.07140
G1 X141.106 Y115.303 E0.04174
G1 X139.732 Y117.188 E0.07315
G1 X138.138 Y118.890 E0.07311
G1 X137.138 Y119.772 E0.04178
G1 X135.248 Y121.142 E0.07322
G1 X134.150 Y121.787 E0.03991
G1 X132.041 Y122.776 E0.07304
G1 X130.843 Y123.204 E0.03991
G1 X128.582 Y123.781 E0.07316
G1 X126.269 Y124.077 E0.07311
G1 X124.999 Y124.120 E0.03984
G1 X122.672 Y123.977 E0.07311
G1 X121.413 Y123.780 E0.03995
G1 X119.154 Y123.203 E0.07311
G1 X117.903 Y122.753 E0.04166
G1 X115.843 Y121.784 E0.07140
G1 X114.697 Y121.106 E0.04174
G1 X112.812 Y119.732 E0.07315
G1 X111.110 Y118.138 E0.07311
G1 X110.228 Y117.138 E0.04178
G1 X108.858 Y115.248 E0.07322
G1 X108.213 Y114.150 E0.03991
G1 X107.224 Y112.041 E0.07304
G1 X106.796 Y110.843 E0.03991
G1 X106.219 Y108.582 E0.07316
G1 X105.923 Y106.269 E0.07311
G1 X105.880 Y104.999 E0.03984
G1 X106.023 Y102.672 E0.07311
G1 X106.220 Y101.413 E0.03995
G1 X106.797 Y99.154 E0.07311
G1 X107.247 Y97.903 E0.04166
G1 X108.216 Y95.843 E0.07140
G1 X108.894 Y94.697 E0.04174
G1 X110.210 Y92.892 E0.07005
G1 F8640
G1 X111.862 Y91.110 E-0.56108
G1 X112.508 Y90.540 E-0.19892
G1 E-0.04000 F2100.00000
G1 Z0.800 F10800.000
G1 X113.728 Y95.675
G1 Z0.200
G1 E0.80000 F2100.00000
G1 F1200
G1 X114.336 Y94.986 E0.02881
G1 X114.986 Y94.336 E0.02881
G1 X115.675 Y93.728 E0.02881
G1 X116.401 Y93.165 E0.02881
G1 X117.162 Y92.649 E0.02881
G1 X117.953 Y92.181 E0.02881
G1 X118.771 Y91.764 E0.02881
G1 X119.615 Y91.399 E0.02881
G1 X120.479 Y91.087 E0.02881
G1 X121.362 Y90.831 E0.02881
G1 X122.259 Y90.630 E0.02881
G1 X123.167 Y90.487 E0.02881
G1 X124.081 Y90.400 E0.02881
G1 X125.000 Y90.371 E0.02881
G1 X125.919 Y90.400 E0.02881
G1 X126.833 Y90.487 E0.02881
G1 X127.741 Y90.630 E0.02881
G1 X128.638 Y90.831 E0.02881
G1 X129.521 Y91.087 E0.02881
G1 X130.385 Y91.399 E0.02881
G1 X131.229 Y91.764 E0.02881
G1 X132.047 Y92.181 E0.02881
G1 X132.838 Y92.649 E0.02881
G1 X133.599 Y93.165 E0.02881
G1 X134.325 Y93.728 E0.02881
G1 X135.014 Y94.336 E0.02881
G1 X135.664 Y94.986 E0.02881
G1 X136.272 Y95.675 E0.02881
G1 X136.835 Y96.401 E0.02881
G1 X137.351 Y97.162 E0.02881
G1 X137.819 Y97.953 E0.02881
G1 X138.236 Y98.771 E0.02881
G1 X138.601 Y99.615 E0.02881
G1 X138.913 Y100.479 E0.02881
G1 X139.169 Y101.362 E0.02881
G1 X139.370 Y102.259 E0.02881
G1 X139.513 Y103.167 E0.02881
G1 X139.600 Y104.081 E0.02881
G1 X139.629 Y105.000 E0.02881
G1 X139.600 Y105.919 E0.02881
G1 X139.513 Y106.833 E0.02881
G1 X139.370 Y107.741 E0.02881
G1 X139.169 Y108.638 E0.02881
G1 X138.913 Y109.521 E0.02881
G1 X138.601 Y110.385 E0.02881
G1 X138.236 Y111.229 E0.02881
G1 X137.819 Y112.047 E0.02881
G1 X137.351 Y112.838 E0.02881
G1 X136.835 Y113.599 E0.02881
G1 X136.272 Y114.325 E0.02881
G1 X135.664 Y115.014 E0.02881
G1 X135.014 Y115.664 E0.02881
G1 X134.325 Y116.272 E0.02881
G1 X133.599 Y116.835 E0.02881
G1 X132.838 Y117.351 E0.02881
G1 X132.047 Y117.819 E0.02881
G1 X131.229 Y118.236 E0.02881
G1 X130.385 Y118.601 E0.02881
G1 X129.521 Y118.913 E0.02881
G1 X128.638 Y119.169 E0.02881
G1 X127.741 Y119.370 E0.02881
G1 X126.833 Y119.513 E0.02881
G1 X125.919 Y119.600 E0.02881
G1 X125.000 Y119.629 E0.02881
G1 X124.081 Y119.600 E0.02881
G1 X123.167 Y119.513 E0.02881
G1 X122.259 Y119.370 E0.02881
G1 X121.362 Y119.169 E0.02881
G1 X120.479 Y118.913 E0.02881
G1 X119.615 Y118.601 E0.02881
G1 X118.771 Y118.236 E0.02881
G1 X117.953 Y117.819 E0.02881
G1 X117.162 Y117.351 E0.02881
G1 X116.401 Y116.835 E0.02881
G1 X115.675 Y116.272 E0.02881
G1 X114.986 Y115.664 E0.02881
G1 X114.336 Y115.014 E0.02881
G1 X113.728 Y114.325 E0.02881
G1 X113.165 Y113.599 E0.02881
G1 X112.649 Y112.838 E0.02881
G1 X112.181 Y112.047 E0.02881
G1 X111.764 Y111.229 E0.02881
G1 X111.399 Y110.385 E0.02881
G1 X111.087 Y109.521 E0.02881
G1 X110.831 Y108.638 E0.02881
G1 X110.630 Y107.741 E0.02881
G1 X110.487 Y106.833 E0.02881
G1 X110.400 Y105.919 E0.02881
G1 X110.371 Y105.000 E0.02881
G1 X110.400 Y104.081 E0.02881
G1 X110.487 Y103.167 E0.02881
G1 X110.630 Y102.259 E0.02881
G1 X110.831 Y101.362 E0.02881
G1 X111.087 Y100.479 E0.02881
G1 X111.399 Y99.615 E0.02881
G1 X111.764 Y98.771 E0.02881
G1 X112.181 Y97.953 E0.02881
G1 X112.649 Y97.162 E0.02881
G1 X113.165 Y96.401 E0.02881
G1 X113.692 Y95.723 E0.02693
G1 X113.394 Y95.492 F10800.000
G1 F1200
G1 X114.061 Y94.728 E0.03181
G1 X114.728 Y94.061 E0.02956
G1 X115.435 Y93.438 E0.02956
G1 X116.180 Y92.860 E0.02956
G1 X116.959 Y92.330 E0.02956
G1 X117.771 Y91.850 E0.02956
G1 X118.611 Y91.422 E0.02956
G1 X119.476 Y91.048 E0.02956
G1 X120.363 Y90.729 E0.02956
G1 X121.268 Y90.466 E0.02956
G1 X122.188 Y90.260 E0.02956
G1 X123.119 Y90.112 E0.02956
G1 X124.058 Y90.024 E0.02956
G1 X125.000 Y89.994 E0.02956
G1 X125.942 Y90.024 E0.02956
G1 X126.881 Y90.112 E0.02956
G1 X127.812 Y90.260 E0.02956
G1 X128.732 Y90.466 E0.02956
G1 X129.637 Y90.729 E0.02956
G1 X130.524 Y91.048 E0.02956
G1 X131.389 Y91.422 E0.02956
G1 X132.229 Y91.850 E0.02956
G1 X133.041 Y92.330 E0.02956
G1 X133.820 Y92.860 E0.02956
G1 X134.565 Y93.438 E0.02956
G1 X135.272 Y94.061 E0.02956
G1 X135.939 Y94.728 E0.02956
G1 X136.562 Y95.435 E0.02956
G1 X137.140 Y96.180 E0.02956
G1 X137.670 Y96.959 E0.02956
G1 X138.150 Y97.771 E0.02956
G1 X138.578 Y98.611 E0.02956
G1 X138.952 Y99.476 E0.02956
G1 X139.271 Y100.363 E0.02956
G1 X139.534 Y101.268 E0.02956
G1 X139.740 Y102.188 E0.02956
G1 X139.888 Y103.119 E0.02956
G1 X139.976 Y104.058 E0.02956
G1 X140.006 Y105.000 E0.02956
G1 X139.976 Y105.942 E0.02956
G1 X139.888 Y106.881 E0.02956
G1 X139.740 Y107.812 E0.02956
G1 X139.534 Y108.732 E0.02956
G1 X139.271 Y109.637 E0.02956
G1 X138.952 Y110.524 E0.02956
G1 X138.578 Y111.389 E0.02956
G1 X138.150 Y112.229 E0.02956
G1 X137.670 Y113.041 E0.02956
G1 X137.140 Y113.820 E0.02956
G1 X136.562 Y114.565 E0.02956
G1 X135.939 Y115.272 E0.02956
G1 X135.272 Y115.939 E0.02956
G1 X134.565 Y116.562 E0.02956
G1 X133.820 Y117.140 E0.02956
G1 X133.041 Y117.670 E0.02956
G1 X132.229 Y118.150 E0.02956
G1 X131.389 Y118.578 E0.02956
G1 X130.524 Y118.952 E0.02956
G1 X129.637 Y119.271 E0.02956
G1 X128.732 Y119.534 E0.02956
G1 X127.812 Y119.740 E0.02956
G1 X126.881 Y119.888 E0.02956
G1 X125.942 Y119.976 E0.02956
G1 X125.000 Y120.006 E0.02956
G1 X124.058 Y119.976 E0.02956
G1 X123.119 Y119.888 E0.02956
G1 X122.188 Y119.740 E0.02956
G1 X121.268 Y119.534 E0.02956
G1 X120.363 Y119.271 E0.02956
G1 X119.476 Y118.952 E0.02956
G1 X118.611 Y118.578 E0.02956
G1 X117.771 Y118.150 E0.02956
G1 X116.959 Y117.670 E0.02956
G1 X116.180 Y117.140 E0.02956
G1 X115.435 Y116.562 E0.02956
G1 X114.728 Y115.939 E0.02956
G1 X114.061 Y115.272 E0.02956
G1 X113.438 Y114.565 E0.02956
G1 X112.860 Y113.820 E0.02956
G1 X112.330 Y113.041 E0.02956
G1 X111.850 Y112.229 E0.02956
G1 X111.422 Y111.389 E0.02956
G1 X111.048 Y110.524 E0.02956
G1 X110.729 Y109.637 E0.02956
G1 X110.466 Y108.732 E0.02956
G1 X110.260 Y107.812 E0.02956
G1 X110.112 Y106.881 E0.02956
G1 X110.024 Y105.942 E0.02956
G1 X109.994 Y105.000 E0.02956
G1 X110.024 Y104.058 E0.02956
G1 X110.112 Y103.119 E0.02956
G1 X110.260 Y102.188 E0.02956
G1 X110.466 Y101.268 E0.02956
G1 X110.729 Y100.363 E0.02956
G1 X111.048 Y99.476 E0.02956
G1 X111.422 Y98.611 E0.02956
G1 X111.850 Y97.771 E0.02956
G1 X112.330 Y96.959 E0.02956
G1 X112.860 Y96.180 E0.02956
G1 X113.357 Y95.539 E0.02542
G1 X113.788 Y95.557 F10800.000
G1 F8640
G1 X114.061 Y94.728 E-0.24806
G1 X114.728 Y94.061 E-0.21767
G1 X115.435 Y93.438 E-0.21767
G1 X115.697 Y93.234 E-0.07659
G1 E-0.04000 F2100.00000
G1 Z0.800 F10800.000
G1 X125.000 Y105.000
G1 Z0.200
G1 E0.80000 F2100.00000
G1 F1200
G1 X124.733 Y105.267 E0.01182
G1 X124.647 Y105.179 E0.00387
G1 X124.591 Y105.066 E0.00395
G1 X124.572 Y104.939 E0.00403
G1 X124.592 Y104.809 E0.00411
G1 X124.650 Y104.689 E0.00419
G1 X124.743 Y104.589 E0.00426
G1 X124.861 Y104.518 E0.00433
G1 X124.997 Y104.482 E0.00440
G1 X125.139 Y104.484 E0.00447
G1 X125.278 Y104.525 E0.00453
G1 X125.403 Y104.602 E0.00460
G1 X125.504 Y104.711 E0.00466
G1 X125.576 Y104.843 E0.00472
G1 X125.612 Y104.991 E0.00478
G1 X125.610 Y105.145 E0.00483
G1 X125.569 Y105.296 E0.00489
G1 X125.492 Y105.434 E0.00494
G1 X125.384 Y105.550 E0.00500
G1 X125.249 Y105.638 E0.00505
G1 X125.095 Y105.692 E0.00510
G1 X124.932 Y105.710 E0.00515
G1 X124.768 Y105.688 E0.00520
G1 X124.611 Y105.630 E0.00525
G1 X124.470 Y105.536 E0.00529
G1 X124.353 Y105.413 E0.00534
G1 X124.266 Y105.265 E0.00539
G1 X124.213 Y105.100 E0.00543
G1 X124.197 Y104.926 E0.00548
G1 X124.219 Y104.751 E0.00552
G1 X124.279 Y104.584 E0.00556
G1 X124.373 Y104.433 E0.00560
G1 X124.499 Y104.303 E0.00565
G1 X124.650 Y104.203 E0.00569
G1 X124.820 Y104.135 E0.00573
G1 X125.001 Y104.104 E0.00577
G1 X125.186 Y104.111 E0.00581
G1 X125.367 Y104.156 E0.00585
G1 X125.536 Y104.237 E0.00588
G1 X125.687 Y104.351 E0.00592
G1 X125.812 Y104.494 E0.00596
G1 X125.907 Y104.660 E0.00600
G1 X125.967 Y104.843 E0.00603
G1 X125.991 Y105.035 E0.00607
G1 X125.977 Y105.229 E0.00610
G1 X125.925 Y105.418 E0.00614
G1 X125.838 Y105.594 E0.00617
G1 X125.717 Y105.751 E0.00621
G1 X125.568 Y105.883 E0.00624
G1 X125.395 Y105.985 E0.00628
G1 X125.206 Y106.053 E0.00631
G1 X125.006 Y106.084 E0.00634
G1 X124.803 Y106.077 E0.00637
G1 X124.604 Y106.033 E0.00641
G1 X124.415 Y105.952 E0.00644
G1 X124.243 Y105.837 E0.00647
G1 X124.095 Y105.692 E0.00650
G1 X123.975 Y105.522 E0.00653
G1 X123.887 Y105.332 E0.00656
G1 X123.835 Y105.128 E0.00659
G1 X123.820 Y104.917 E0.00662
G1 X123.843 Y104.706 E0.00665
G1 X123.904 Y104.502 E0.00668
G1 X124.000 Y104.311 E0.00671
G1 X124.129 Y104.139 E0.00674
G1 X124.286 Y103.991 E0.00677
G1 X124.468 Y103.873 E0.00680
G1 X124.669 Y103.788 E0.00683
G1 X124.882 Y103.739 E0.00685
G1 X125.101 Y103.727 E0.00688
G1 X125.320 Y103.753 E0.00691
G1 X125.532 Y103.816 E0.00694
G1 X125.731 Y103.915 E0.00696
G1 X125.910 Y104.047 E0.00699
G1 X126.066 Y104.207 E0.00702
G1 X126.193 Y104.393 E0.00705
G1 X126.287 Y104.598 E0.00707
G1 X126.346 Y104.816 E0.00710
G1 X126.368 Y105.042 E0.00712
G1 X126.352 Y105.270 E0.00715
G1 X126.298 Y105.492 E0.00718
G1 X126.209 Y105.704 E0.00720
G1 X126.085 Y105.898 E0.00723
G1 X125.930 Y106.070 E0.00725
G1 X125.749 Y106.216 E0.00728
G1 X125.547 Y106.330 E0.00730
G1 X125.327 Y106.410 E0.00733
G1 X125.097 Y106.454 E0.00735
G1 X124.862 Y106.460 E0.00737
G1 X124.628 Y106.429 E0.00740
G1 X124.401 Y106.360 E0.00742
G1 X124.188 Y106.256 E0.00745
G1 X123.993 Y106.119 E0.00747
G1 X123.822 Y105.952 E0.00749
G1 X123.679 Y105.760 E0.00752
G1 X123.567 Y105.547 E0.00754
G1 X123.490 Y105.318 E0.00756
G1 X123.450 Y105.080 E0.00759
G1 X123.447 Y104.837 E0.00761
G1 X123.482 Y104.596 E0.00763
G1 X123.554 Y104.363 E0.00765
G1 X123.661 Y104.143 E0.00768
G1 X123.802 Y103.941 E0.00770
G1 X123.972 Y103.764 E0.00772
G1 X124.168 Y103.613 E0.00774
G1 X124.385 Y103.494 E0.00776
G1 X124.618 Y103.410 E0.00779
G1 X124.863 Y103.361 E0.00781
G1 X125.112 Y103.350 E0.00783
G1 X125.361 Y103.377 E0.00785
G1 X125.604 Y103.441 E0.00787
G1 X125.835 Y103.541 E0.00789
G1 X126.049 Y103.675 E0.00791
G1 X126.241 Y103.840 E0.00794
G1 X126.407 Y104.032 E0.00796
G1 X126.543 Y104.247 E0.00798
G1 X126.645 Y104.480 E0.00800
G1 X126.713 Y104.727 E0.00802
G1 X126.743 Y104.981 E0.00804
G1 X126.736 Y105.238 E0.00806
G1 X126.691 Y105.492 E0.00808
G1 X126.609 Y105.737 E0.00810
G1 X126.492 Y105.968 E0.00812
G1 X126.342 Y106.180 E0.00814
G1 X126.163 Y106.369 E0.00816
G1 X125.958 Y106.530 E0.00818
G1 X125.731 Y106.660 E0.00820
G1 X125.487 Y106.756 E0.00822
G1 X125.231 Y106.816 E0.00824
G1 X124.969 Y106.839 E0.00826
G1 X124.705 Y106.824 E0.00828
G1 X124.446 Y106.772 E0.00829
G1 X124.196 Y106.683 E0.00831
G1 X123.961 Y106.559 E0.00833
G1 X123.745 Y106.403 E0.00835
G1 X123.553 Y106.217 E0.00837
G1 X123.389 Y106.006 E0.00839
G1 X123.256 Y105.773 E0.00841
G1 X123.157 Y105.523 E0.00843
G1 X123.094 Y105.262 E0.00844
G1 X123.067 Y104.993 E0.00846
G1 X123.079 Y104.723 E0.00848
G1 X123.128 Y104.456 E0.00850
G1 X123.214 Y104.198 E0.00852
